!!!COM: Haydn, Franz Joseph
!!!OTL: String Quartet in C Major
!!!OPS: Opus 54
!!!ONM: No. 2
!!!OMD: Vivace
!!!OMV: 1
!!!SCT: H III:57
!!!SCA: Thematisch-bibliographisches Werkevererzeichnis (A. van Hoboken)
!!!YOR: Dover Edition; reprint of Eulenburg Edition
!!!ENC: Walter Hewlett
!!!CDT: 1732/3/31/-1809/5/31/
!!!CNT: Oesterreich
!!!YEC: Copyright (c) 1994, 2000 Center for Computer Assisted Research in the Humanities
!!!YEM: Rights to all derivative editions reserved.
!!!YEM: Refer to licensing agreement for further details.
!!!YEN: United States of America
**kern	**dynam	**kern	**dynam	**kern	**dynam	**kern	**dynam
*I:Violoncello	*I:Violoncello	*I:Viola	*I:Viola	*I:Violino II	*I:Violino II	*I:Violino I	*I:Violino I
*>[A,A,B,C,C]	*	*>[A,A,B,C,C]	*	*>[A,A,B,C,C]	*	*>[A,A,B,C,C]	*
*>A	*	*>A	*	*>A	*	*>A	*
*clefF4	*	*clefC3	*	*clefG2	*	*clefG2	*
*k[]	*	*k[]	*	*k[]	*	*k[]	*
*C:	*	*C:	*	*C:	*	*C:	*
*M4/4	*	*M4/4	*	*M4/4	*	*M4/4	*
! Vivace	!	! Vivace	!	! Vivace	!	! Vivace	!
[1C/	f	[1G/	f	[1e/	f	2.gg\	f
!	!	!	!	!	!	! (32aaP/LLL	!
!	!	!	!	!	!	! 32ggP/	!
!	!	!	!	!	!	! 32ff#P/JJJ	!
.	.	.	.	.	.	&(4ggp\)	.
=2	=2	=2	=2	=2	=2	=2	=2
1C/_	.	1G/_	.	1e/_	.	4ccc\&)	.
.	.	.	.	.	.	4ee'\	.
.	.	.	.	.	.	4gg'\	.
!	!	!	!	!	!	! (32ddP/LLL	!
!	!	!	!	!	!	! 32ccP/	!
!	!	!	!	!	!	! 32bP/JJJ	!
.	.	.	.	.	.	&(4ccp\)	.
=3	=3	=3	=3	=3	=3	=3	=3
2C/]	.	2G/]	.	2.e/]	.	4ee\&)	.
.	.	.	.	.	.	4g'/	.
2r	.	2r	.	.	.	4cc'\	.
.	.	.	.	4c'/	.	(8e/ 8G/L	.
.	.	.	.	.	.	8g/J	.
=4	=4	=4	=4	=4	=4	=4	=4
*	*	*	*	*	*	*^	*
1r	.	1r	.	4d'/	.	8f/L	1G\	.
.	.	.	.	.	.	8g/	.	.
.	.	.	.	4c'/	.	8e/	.	.
.	.	.	.	.	.	8f/J	.	.
.	.	.	.	4B'/	.	8d/L	.	.
.	.	.	.	.	.	8f/	.	.
.	.	.	.	4c'/	.	8e/	.	.
.	.	.	.	.	.	8g/J)	.	.
=5	=5	=5	=5	=5	=5	=5	=5	=5
*	*	*	*	*	*	*v	*v	*
1r	.	1r	.	4d'/	.	4f/ 4G'/	.
.	.	.	.	4r	.	4b'\	p
.	.	.	.	2r	.	4dd'\	.
.	.	.	.	.	.	4r	.
=6	=6	=6	=6	=6	=6	=6	=6
1r	.	1r	.	1r	.	1r	.
=7	=7	=7	=7	=7	=7	=7	=7
[1GG/	f	[1f\	f	[1b/ [1d/	f	2.ff\	f
!	!	!	!	!	!	! (32ggP/LLL	!
!	!	!	!	!	!	! 32ffP/	!
!	!	!	!	!	!	! 32eeP/JJJ	!
.	.	.	.	.	.	&(4ffp\)	.
=8	=8	=8	=8	=8	=8	=8	=8
1GG/_	.	1f\_	.	1b/_ 1d/_	.	4aa\&)	.
.	.	.	.	.	.	4dd'\	.
.	.	.	.	.	.	4ff'\	.
!	!	!	!	!	!	! (32ccP/LLL	!
!	!	!	!	!	!	! 32bP/	!
!	!	!	!	!	!	! 32aP/JJJ	!
.	.	.	.	.	.	&(4bp\)	.
=9	=9	=9	=9	=9	=9	=9	=9
2GG/]	.	2.f\]	.	2b/] 2d/]	.	4dd\&)	.
.	.	.	.	.	.	4f'/	.
2r	.	.	.	2r	.	4a'/	.
.	.	(8B/L	.	.	.	(8d/ 8G/L	.
.	.	8c/J)	.	.	.	8e/J	.
=10	=10	=10	=10	=10	=10	=10	=10
*	*	*	*	*	*	*^	*
1r	.	4d'\	.	1r	.	8f/L	1G\	.
.	.	.	.	.	.	8g/	.	.
.	.	4c'\	.	.	.	8e/	.	.
.	.	.	.	.	.	8g/J	.	.
.	.	4d'\	.	.	.	8f/L	.	.
.	.	.	.	.	.	8g/	.	.
.	.	4B'/	.	.	.	8d/	.	.
.	.	.	.	.	.	8f/J)	.	.
=11	=11	=11	=11	=11	=11	=11	=11	=11
*	*	*	*	*	*	*v	*v	*
1r	.	4c'\	.	1r	.	4e/ 4G/	.
.	.	4r	.	.	.	4cc'\	p
.	.	2r	.	.	.	4ee'\	.
.	.	.	.	.	.	4r	.
=12	=12	=12	=12	=12	=12	=12	=12
1r	.	1r	.	1r	.	1r	.
=13	=13	=13	=13	=13	=13	=13	=13
[1AA-/	f	[1c\	f	[1e-/	f	2.cc\	f
!	!	!	!	!	!	! (32dd-P/LLL	!
!	!	!	!	!	!	! 32ccP/	!
!	!	!	!	!	!	! 32b-P/JJJ	!
.	.	.	.	.	.	&(4ccp\)	.
=14	=14	=14	=14	=14	=14	=14	=14
1AA-/_	.	1c\_	.	1e-/_	.	4ee-\&)	.
.	.	.	.	.	.	4a-'/	.
.	.	.	.	.	.	4cc'\	.
!	!	!	!	!	!	! (32fP/LLL	!
!	!	!	!	!	!	! 32e-P/	!
!	!	!	!	!	!	! 32dP/JJJ	!
.	.	.	.	.	.	&(4e-p/)	.
=15	=15	=15	=15	=15	=15	=15	=15
2AA-/]	.	2c\]	.	2.e-/]	.	4a-/&)	.
.	.	.	.	.	.	4c'/	.
2r	.	2r	.	.	.	4e-'/	.
.	.	.	.	4A-'/	.	(8c/L	.
.	.	.	.	.	.	8e-/J)	.
=16	=16	=16	=16	=16	=16	=16	=16
2r	.	2r	.	4B-'/	.	8d-'/L	.
.	.	.	.	.	.	8e-'/	.
.	.	.	.	4A-'/	.	8c'/	.
.	.	.	.	.	.	8e-'/J	.
4r	.	4r	.	4G'/	.	8B-'/L	.
.	.	.	.	.	.	8e-'/	.
4E-'\	.	4G'/	.	4B-'/	.	8d-'/	.
.	.	.	.	.	.	8e-'/J	.
=17	=17	=17	=17	=17	=17	=17	=17
4A-'\	.	4A-'/	.	4A-'/	.	(8c/L	.
.	.	.	.	.	.	8e-/)	.
4AA-'/	.	4c'\	.	4r	.	8a-'/	.
.	.	.	.	.	.	8cc'/J	.
2r	.	2r	.	4r	.	(8ee-/L	.
.	.	.	.	.	.	8cc/)	.
.	.	.	.	4c'/	.	8a-'/	.
.	.	.	.	.	.	8e-'/J	.
=18	=18	=18	=18	=18	=18	=18	=18
2r	.	2r	.	4B-'/	.	8d-'/L	.
.	.	.	.	.	.	8e-'/	.
.	.	.	.	4A-'/	.	8c'/	.
.	.	.	.	.	.	8e-'/J	.
4r	.	4r	.	4G'/	.	8B-'/L	.
.	.	.	.	.	.	8e-'/	.
4E-'\	.	4G'/	.	4B-'/	.	8d-'/	.
.	.	.	.	.	.	8e-'/J	.
=19	=19	=19	=19	=19	=19	=19	=19
4A-'\	.	4A-'/	.	4A-'/	.	(8c/L	.
.	.	.	.	.	.	8e-/)	.
4AA-'/	.	4c'\	.	4r	.	8a-'/	.
.	.	.	.	.	.	8cc'/J	.
2r	.	2r	.	4r	.	(8ee-/L	.
.	.	.	.	.	.	8cc/)	.
.	.	.	.	4c'/	.	8a-'/	.
.	.	.	.	.	.	8e-'/J	.
=20	=20	=20	=20	=20	=20	=20	=20
2r	.	2r	.	4B-'/	.	8d-'/L	.
.	.	.	.	.	.	8e-'/	.
.	.	.	.	4A-'/	.	8c'/	.
.	.	.	.	.	.	8e-'/J	.
4r	.	4r	.	4G'/	.	8B-'/L	.
.	.	.	.	.	.	8e-'/	.
4E-'\	.	4G'/	.	4B-'/	.	8d-'/	.
.	.	.	.	.	.	8e-'/J	.
=21	=21	=21	=21	=21	=21	=21	=21
4A-'\	.	4A-'/	.	4A-'/	.	(8c/L	.
.	.	.	.	.	.	8e-/)	.
4AA-'/	.	4c'\	.	4r	.	8a-'/	.
.	.	.	.	.	.	8cc'/J	.
2r	.	2r	.	2r	.	(8ee-/L	.
.	.	.	.	.	.	8cc/)	.
.	.	.	.	.	.	8a-'/	.
.	.	.	.	.	.	8g'/J	.
=22	=22	=22	=22	=22	=22	=22	=22
4r	.	4r	.	4r	.	4f#'/	.
(4A-'\	.	(4c'\	.	(4e-'/	.	(4f#'/	.
4A-'\)	.	4c'\)	.	4e-'/)	.	4f#'/)	.
!	!	!	!	!	!	! (32gP/LLL	!
!	!	!	!	!	!	! 32f#P/	!
!	!	!	!	!	!	! 32enP/JJJ	!
4A-\	.	[4c\	.	(4e-/	.	&(4f#p/)	.
=23	=23	=23	=23	=23	=23	=23	=23
4G\	.	4c\]	.	4en/)	.	4g/&)	.
(4F'\	.	(4c'\	.	(4f'/	.	(4an'/	.
4F'\	.	4c'\	.	4f'/	.	4a'/	.
4F'\)	.	4c'\)	.	4f'/)	.	4a'/)	.
=24	=24	=24	=24	=24	=24	=24	=24
1GG/)	.	(2E/	.	(2c/	.	2c/	.
.	.	4G/	.	2Bn/)	.	(8d/L	.
.	.	.	.	.	.	8c/	.
.	.	4F/)	.	.	.	8d/	.
.	.	.	.	.	.	8e/J)	.
=25	=25	=25	=25	=25	=25	=25	=25
4C/	.	4E/	.	4c/	.	4c/	.
4r	.	4r	.	4r	.	4r	.
2r	.	2r	.	2r	.	2r	.
=26	=26	=26	=26	=26	=26	=26	=26
4r	.	4r	.	4r	.	4r	.
*clefC4	*	*	*	*	*	*	*
(4an'\	p	(4cc'\	p	(4dd'\	p	(4ff#'\	p
4a'\)	.	4cc'\)	.	4dd'\)	.	4ff#'\)	.
(4a\	.	[4cc\	.	(4dd\	.	(4ff#S\	.
=27	=27	=27	=27	=27	=27	=27	=27
4g\)	.	4cc\]	.	4ee\)	.	4gg\)	.
(4f'\	.	(4cc'\	.	(4ff'\	.	(4aa'\	.
4f'\	.	4cc'\	.	4ff'\	.	4aa'\	.
4f'\)	.	4cc'\)	.	4ff'\)	.	4aa'\)	.
*clefF4	*	*	*	*	*	*	*
=28	=28	=28	=28	=28	=28	=28	=28
1G\	.	(2e\	.	(2cc\	.	2cc\	.
.	.	4g\	.	2b\)	.	(8dd\L	.
.	.	.	.	.	.	8cc\	.
.	.	4f\)	.	.	.	8dd\	.
.	.	.	.	.	.	8ee\J)	.
=29	=29	=29	=29	=29	=29	=29	=29
4c\	.	4e\	.	4cc\	.	4cc\	.
4r	.	4r	.	4r	.	4r	.
2r	.	2r	.	2r	.	2r	.
=30	=30	=30	=30	=30	=30	=30	=30
[1AA/	f	[1e\ [1A\	f	[1cc/ [1e/	f	2.ccc\	f
!	!	!	!	!	!	! (32dddP/LLL	!
!	!	!	!	!	!	! 32cccP/	!
!	!	!	!	!	!	! 32bbP/JJJ	!
.	.	.	.	.	.	&(4cccp\)	.
=31	=31	=31	=31	=31	=31	=31	=31
1AA/_	.	1e\_ 1A\_	.	1cc/_ 1e/_	.	4eee'\&)	.
.	.	.	.	.	.	(4bbS\	.
.	.	.	.	.	.	4ccc'\)	.
.	.	.	.	.	.	(4gg#S\	.
=32	=32	=32	=32	=32	=32	=32	=32
1AA/_	.	1e\_ 1A\_	.	1cc/_ 1e/_	.	4aa'\)	.
.	.	.	.	.	.	(4dd#S\	.
.	.	.	.	.	.	4ee'\)	.
.	.	.	.	.	.	(4bS\	.
=33	=33	=33	=33	=33	=33	=33	=33
1AA/]	.	1e\] 1A\]	.	1cc/] 1e/]	.	4cc'\)	.
.	.	.	.	.	.	(4g#S/	.
.	.	.	.	.	.	4a'/)	.
.	.	.	.	.	.	4e/	.
=34	=34	=34	=34	=34	=34	=34	=34
(1A\	.	2f\	.	(1c/	.	2f/	.
.	.	2r	.	.	.	(4e'/	.
.	.	.	.	.	.	4d#'/)	.
=35	=35	=35	=35	=35	=35	=35	=35
4G#\)	.	4r	.	4B/)	.	8e/L	.
.	.	.	.	.	.	8g#/	.
4r	.	4G#'/	.	4r	.	8b/	.
.	.	.	.	.	.	8ee/J	.
2r	.	4B'/	.	2r	.	8gg#\L	.
.	.	.	.	.	.	8bb\	.
.	.	4e'\	.	.	.	8gg#\	.
.	.	.	.	.	.	8ee\J	.
=36	=36	=36	=36	=36	=36	=36	=36
(1Gn\	.	1r	.	(1B-/	.	2e/	.
.	.	.	.	.	.	(4dn'/	.
.	.	.	.	.	.	4c#'/)	.
=37	=37	=37	=37	=37	=37	=37	=37
4F\)	.	4r	.	4A/)	.	8d/L	.
.	.	.	.	.	.	8f/	.
4r	.	4F'/	.	4r	.	8a/	.
.	.	.	.	.	.	8dd/J	.
2r	.	4A'/	.	2r	.	8ff\L	.
.	.	.	.	.	.	8aa\	.
.	.	4d'\	.	.	.	8ff\	.
.	.	.	.	.	.	8dd\J	.
=38	=38	=38	=38	=38	=38	=38	=38
1F\	.	1G/	.	2Bn/	.	2d/	.
.	.	.	.	(4c'/	.	(4cn'/	.
.	.	.	.	4d'/)	.	4B'/)	.
=39	=39	=39	=39	=39	=39	=39	=39
1E\	.	1G/	.	[1c/	.	8c/L	.
.	.	.	.	.	.	8e/	.
.	.	.	.	.	.	8g/	.
.	.	.	.	.	.	8cc/J	.
.	.	.	.	.	.	8ee\L	.
.	.	.	.	.	.	8gg\	.
.	.	.	.	.	.	8ee\	.
.	.	.	.	.	.	8cc\J	.
=40	=40	=40	=40	=40	=40	=40	=40
[1D\	.	2A/	.	1c/]	.	8ff#\L	.
.	.	.	.	.	.	8aa\	.
.	.	.	.	.	.	8ff#\	.
.	.	.	.	.	.	8dd\J	.
.	.	2f#\	.	.	.	8cc/L	.
.	.	.	.	.	.	8a/	.
.	.	.	.	.	.	8f#/	.
.	.	.	.	.	.	8c/J	.
=41	=41	=41	=41	=41	=41	=41	=41
1D\_	.	1g\	.	1B/	.	8B/L	.
.	.	.	.	.	.	8d/	.
.	.	.	.	.	.	8g/	.
.	.	.	.	.	.	8b/J	.
.	.	.	.	.	.	8dd\L	.
.	.	.	.	.	.	8gg\	.
.	.	.	.	.	.	8bb\	.
.	.	.	.	.	.	8gg\J	.
=42	=42	=42	=42	=42	=42	=42	=42
1D\]	.	1gn\ 1B-\	.	1en/ 1c#/	.	8ee\L	.
.	.	.	.	.	.	8gg\	.
.	.	.	.	.	.	8ee\	.
.	.	.	.	.	.	8cc#\J	.
.	.	.	.	.	.	8b-/L	.
.	.	.	.	.	.	8g/	.
.	.	.	.	.	.	8e/	.
.	.	.	.	.	.	8c#/J	.
=43	=43	=43	=43	=43	=43	=43	=43
4D\	.	4f#\ 4An\	.	4d/	.	(8d/L	.
.	.	.	.	.	.	8dd/)	.
4r	.	4r	.	4r	.	(8ee/	.
.	.	.	.	.	.	8dd/J)	.
4r	.	4r	.	4r	.	8cc#'\L	.
.	.	.	.	.	.	8dd'\	.
(4F#\	.	[4d\	.	(4a/	.	8ccn'\	.
.	.	.	.	.	.	8dd'\J	.
=44	=44	=44	=44	=44	=44	=44	=44
8G\)	.	8d\]	.	8b\)	.	8b'\L	.
8r	.	8r	.	8r	.	8dd'\	.
4r	.	4r	.	4r	.	8gg'\	.
.	.	.	.	.	.	8bb'\J	.
4r	.	4r	.	4r	.	8ddd'\L	.
.	.	.	.	.	.	8bb'\	.
(4G\	.	(4g\	.	(4b\	.	8gg'\	.
.	.	.	.	.	.	8dd'\J	.
=45	=45	=45	=45	=45	=45	=45	=45
8F#\)	.	8a\)	.	8ccn\)	.	(8d/L	.
8r	.	8r	.	8r	.	8dd/)	.
4r	.	4r	.	4r	.	(8ee/	.
.	.	.	.	.	.	8dd/J)	.
4r	.	4r	.	4r	.	8cc#'\L	.
.	.	.	.	.	.	8dd'\	.
(4F#\	.	(4a\	.	(4cc\	.	8ccn'\	.
.	.	.	.	.	.	8dd'\J	.
=46	=46	=46	=46	=46	=46	=46	=46
8G\)	.	8g\)	.	8b\)	.	8b'\L	.
8r	.	8r	.	8r	.	8dd'\	.
4r	.	4r	.	4r	.	8gg'\	.
.	.	.	.	.	.	8bb'\J	.
4r	.	4r	.	4r	.	8ddd'\L	.
.	.	.	.	.	.	8bb'\	.
(4G\	.	(4g\	.	(4b\	.	8gg'\	.
.	.	.	.	.	.	8dd'\J	.
=47	=47	=47	=47	=47	=47	=47	=47
8F#\)	.	8a\)	.	8cc\)	.	(8d/L	.
8r	.	8r	.	8r	.	8dd/)	.
4r	.	4r	.	4r	.	(8ee/	.
.	.	.	.	.	.	8dd/J)	.
2r	.	4r	.	4r	.	8cc#'\L	.
.	.	.	.	.	.	8dd'\	.
.	.	4a\	.	4cc\	.	8ccn'\	.
.	.	.	.	.	.	8dd'\J	.
=48	=48	=48	=48	=48	=48	=48	=48
[1G\	>]	[1d\	.	[1b-\	.	8b-\L	.
.	.	.	.	.	.	8dd\	.
.	.	.	.	.	.	8gg\	.
.	.	.	.	.	.	8bb-\J	.
.	.	.	.	.	.	8ddd\L	.
.	.	.	.	.	.	8bb-\	.
.	.	.	.	.	.	8gg\	.
.	.	.	.	.	.	8dd\J	.
=49	=49	=49	=49	=49	=49	=49	=49
1G\]	.	1d\]	.	1b-\_	.	8g\L	.
.	.	.	.	.	.	8b-\	.
.	.	.	.	.	.	8dd\	.
.	.	.	.	.	.	8gg\J	.
.	.	.	.	.	.	8bb-\L	.
.	.	.	.	.	.	8gg\	.
.	.	.	.	.	.	8dd\	.
.	.	.	.	.	.	8b-\J	.
=50	=50	=50	=50	=50	=50	=50	=50
[1E-\	.	[1g\	.	1b-\_	.	8e-\L	.
.	.	.	.	.	.	8g\	.
.	.	.	.	.	.	8b-\	.
.	.	.	.	.	.	8ee-\J	.
.	.	.	.	.	.	8gg\L	.
.	.	.	.	.	.	8ee-\	.
.	.	.	.	.	.	8b-\	.
.	.	.	.	.	.	8g\J	.
=51	=51	=51	=51	=51	=51	=51	=51
2E-\]	.	1g\_	.	1b-\_	.	(8e-/L	.
.	.	.	.	.	.	8g/)	.
.	.	.	.	.	.	8b-'/	.
.	.	.	.	.	.	8g'/J	.
2D\	.	.	.	.	.	(8d/L	.
.	.	.	.	.	.	8g/)	.
.	.	.	.	.	.	8b-'/	.
.	.	.	.	.	.	8g'/J	.
=52	=52	=52	=52	=52	=52	=52	=52
[1C#/	.	1g\_	.	1b-\_	.	(8c#/L	.
.	.	.	.	.	.	8g/)	.
.	.	.	.	.	.	8b-/	.
.	.	.	.	.	.	8g/J	.
.	.	.	.	.	.	8eeen'\L	.
.	.	.	.	.	.	(8g\	.
.	.	.	.	.	.	8b-\)	.
.	.	.	.	.	.	8g'\J	.
=53	=53	=53	=53	=53	=53	=53	=53
1C#/]	.	1g\]	.	1b-\]	.	(8c#/L	.
.	.	.	.	.	.	8g/)	.
.	.	.	.	.	.	8b-'/	.
.	.	.	.	.	.	8g'/J	.
.	.	.	.	.	.	8eee'\L	.
.	.	.	.	.	.	(8g\	.
.	.	.	.	.	.	8b-\)	.
.	.	.	.	.	.	8g'\J	.
=54	=54	=54	=54	=54	=54	=54	=54
2D\	.	2f#\	.	2a/	.	(8f#/L	.
.	.	.	.	.	.	8d/)	.
.	.	.	.	.	.	8f#'/	.
.	.	.	.	.	.	8a'/J	.
8D\L	.	8d\L	.	8d/L	.	8dd'\L	.
8F#\	.	8f#\	.	8f#/	.	8ff#'\	.
8A\	.	8a\	.	8a/	.	8aa'\	.
8c#\J	.	8cc#\J	.	8cc#/J	.	8ccc#'\J	.
=55	=55	=55	=55	=55	=55	=55	=55
4d\	.	4dd\	.	4dd\	.	(2.ddd\	>
4r	.	(4d\	>	(4f#/	>	.	.
2r	.	4e\	.	4g/	.	.	.
.	.	4f#\)	]	4a/)	]	4cccn\)	]
=56	=56	=56	=56	=56	=56	=56	=56
!	!	! p dolce	!	!	!	! p dolce	!
4G\	p	([2g\	.	4bn\	p	([2bb\	.
4r	.	.	.	4r	.	.	.
2r	.	8g\L]	.	2r	.	8bb\L]	.
.	.	8b\	.	.	.	8ddd\	.
.	.	8a\	.	.	.	8ccc\	.
.	.	8ccn\J)	.	.	.	8eee\J)	.
=57	=57	=57	=57	=57	=57	=57	=57
1r	.	8b'\	.	4r	.	8ddd'\	.
.	.	8r	.	.	.	8r	.
.	.	(4b\	.	4dd'\	.	(4ddd\	.
.	.	8g'\)	.	4r	.	8bb'\)	.
.	.	8r	.	.	.	8r	.
.	.	(4a\	.	4dd'\	.	(4ccc\	.
=58	=58	=58	=58	=58	=58	=58	=58
1r	.	8f#'\)	.	4r	.	8aa'\)	.
.	.	8r	.	.	.	8r	.
.	.	(4g\	.	4dd'\	.	(4bb\	.
.	.	8B'/)	.	4r	.	8gg'\)	.
.	.	8r	.	.	.	8r	.
.	.	(4c\	.	4e'/	.	(8bb\L	.
.	.	.	.	.	.	8aa\J)	.
=59	=59	=59	=59	=59	=59	=59	=59
1r	.	4d'\)	.	4d'/	.	4dd'\	.
.	.	4r	.	4r	.	4dd'\	.
.	.	2r	.	2r	.	4dd'\	.
.	.	.	.	.	.	(8bb\L	.
.	.	.	.	.	.	8aa\J)	.
=60	=60	=60	=60	=60	=60	=60	=60
4F#'\	.	4A'/	.	4d'/	.	4cc'\	.
4F#'\	.	4A'/	.	4d'/	.	4cc'\	.
4F#'\	.	4A'/	.	4d'/	.	4cc'\	.
4r	.	4r	.	4r	.	(4aa\	.
=61	=61	=61	=61	=61	=61	=61	=61
4G'\	.	4G'/	.	4d'/	.	8b'\)	.
.	.	.	.	.	.	8r	.
4r	.	4r	.	4r	.	(4gg\	.
4Cn'/	.	4G'/	.	4e'/	.	8a'/)	.
.	.	.	.	.	.	8r	.
4r	.	4r	.	4r	.	(4ee\	.
=62	=62	=62	=62	=62	=62	=62	=62
1D\	.	(2G/	.	(2B/	.	2g/)	.
.	.	2F#/)	.	4d/	.	&(4.a/)	.
.	.	.	.	4c/)	.	.	.
.	.	.	.	.	.	8g/&)	.
=63	=63	=63	=63	=63	=63	=63	=63
2GG/	.	4G/	.	4B/	.	8g'\L	<
.	.	.	.	.	.	8b'\	.
.	.	4r	.	4r	.	8dd'\	.
.	.	.	.	.	.	8ff#'\J	.
2r	.	2r	.	2r	.	8gg'\L	.
.	.	.	.	.	.	8aa'\	.
.	.	.	.	.	.	8bb'\	.
.	.	.	.	.	.	8ccc'\J	]
=64	=64	=64	=64	=64	=64	=64	=64
!	!	! dolce	!	! dolce	!	!	!
1r	.	([2g\	.	([2b\	.	[1ddd\	.
.	.	8g\L]	.	8b\L]	.	.	.
.	.	8b\	.	8dd\	.	.	.
.	.	8a\	.	8cc\	.	.	.
.	.	8cc\J)	.	8ee\J)	.	.	.
=65	=65	=65	=65	=65	=65	=65	=65
1r	.	8b'\	.	8dd'\	.	1ddd\_	.
.	.	8r	.	8r	.	.	.
.	.	(4b\	.	(4dd\	.	.	.
.	.	8g'\)	.	8b'\)	.	.	.
.	.	8r	.	8r	.	.	.
.	.	(4a\	.	(4cc\	.	.	.
=66	=66	=66	=66	=66	=66	=66	=66
1r	.	8f#'\)	.	8a'/)	.	1ddd\_	.
.	.	8r	.	8r	.	.	.
.	.	(4g\	.	(4b\	.	.	.
.	.	8B'/)	.	8g'/)	.	.	.
.	.	8r	.	8r	.	.	.
.	.	(4c\	.	(8b/L	.	.	.
.	.	.	.	8a/J)	.	.	.
=67	=67	=67	=67	=67	=67	=67	=67
4r	.	4d'\)	.	8d'/	.	8ddd'\]	.
.	.	.	.	8r	.	8r	.
(4B\	.	4r	.	(4dd\	.	(4ddd\	.
8G'\)	.	2r	.	8d'/)	.	8bb'\)	.
8r	.	.	.	8r	.	8r	.
(4A\	.	.	.	(4dd\	.	(4ccc\	.
=68	=68	=68	=68	=68	=68	=68	=68
8F#'\)	.	1r	.	8d'/)	.	8aa'\)	.
8r	.	.	.	8r	.	8r	.
(4G\	.	.	.	(4dd\	.	(4bb\	.
8BB'/)	.	.	.	8d'/)	.	8gg'\)	.
8r	.	.	.	8r	.	8r	.
(4C/	.	.	.	(4dd\	.	(8bb\L	.
.	.	.	.	.	.	8aa\J)	.
=69	=69	=69	=69	=69	=69	=69	=69
4D'\)	.	1r	.	4d'/)	.	4dd'\	.
4r	.	.	.	4r	.	4dd'\	.
2r	.	.	.	2r	.	4dd'\	.
.	.	.	.	.	.	(8bb\L	.
.	.	.	.	.	.	8aa\J)	.
=70	=70	=70	=70	=70	=70	=70	=70
4F#'\	.	4d'\	.	4a'/	.	4cc'\	.
4F#'\	.	4d'\	.	4a'/	.	4cc'\	.
4F#'\	.	4d'\	.	4a'/	.	4cc'\	.
4r	.	4r	.	4r	.	(8bb\L	.
.	.	.	.	.	.	8aa\J)	.
=71	=71	=71	=71	=71	=71	=71	=71
4G'\	.	4g'\	.	4d'/	.	8b\	.
.	.	.	.	.	.	8r	.
4r	.	4r	.	4r	.	(8aa\L	.
.	.	.	.	.	.	8gg\J)	.
4C'/	.	4c'\	.	4e'/	.	8a'/	.
.	.	.	.	.	.	8r	.
4r	.	4r	.	4r	.	(8dd#\L	.
.	.	.	.	.	.	8ee\J)	.
=72	=72	=72	=72	=72	=72	=72	=72
1D\	.	(2G/	.	(2B/	.	2g/	.
.	.	2F#/)	.	4d/	.	&(4.a/)	.
.	.	.	.	4c/)	.	.	.
.	.	.	.	.	.	8g/&)	.
=73	=73	=73	=73	=73	=73	=73	=73
2G\	.	2G/	.	4B/	.	(8g/L	.
.	.	.	.	.	.	8d/)	.
.	.	.	.	4r	.	8dd'/	.
.	.	.	.	.	.	8b'/J	.
2r	.	2r	.	2r	.	(8g/L	.
.	.	.	.	.	.	8d/)	.
.	.	.	.	.	.	8gg'/	.
.	.	.	.	.	.	8dd'/J	.
=74	=74	=74	=74	=74	=74	=74	=74
!	!	!	!	!	!	! cresc.	!
2G\	.	2G/	.	4b/ 4d/	.	(8b\L	.
.	.	.	.	.	.	8g\)	.
.	.	.	.	4r	.	8bb'\	.
.	.	.	.	.	.	8gg'\J	.
2r	.	2r	.	2r	.	(8dd\L	.
.	.	.	.	.	.	8b\)	.
.	.	.	.	.	.	8ddd'\	.
.	.	.	.	.	.	8bb'\J	.
=75	=75	=75	=75	=75	=75	=75	=75
! cresc.	!	! cresc.	!	! cresc.	!	!	!
2G\	.	4G/	.	4b/ 4d/	.	(8gg\L	.
.	.	.	.	.	.	8dd\)	.
.	.	8G'/L	.	8B'/L	.	8ggg'\	.
.	.	8B'/J	.	8d'/J	.	8ggg'\J	.
2r	.	(8d\L	.	(8g/L	.	8ggg'\L	.
.	.	8g\)	.	8b/)	.	8ggg'\	.
.	.	8G'\	.	8B'/	.	8ggg'\	.
.	.	8B'\J	.	8d'/J	.	8ggg'\J	.
=76	=76	=76	=76	=76	=76	=76	=76
2G\	.	(8d\L	f	(8g/L	f	(8ggg\L	f
.	.	8g\)	.	8b/)	.	8ddd\)	.
.	.	8B'\	.	8d'/	.	8bbb'\	.
.	.	8d'\J	.	8g'/J	.	8bbb'\J	.
2r	.	(8g\L	.	(8b/L	.	8bbb'\L	.
.	.	8b\)	.	8dd/)	.	8bbb'\	.
.	.	8B'\	.	8d'/	.	8bbb'\	.
.	.	8d'\J	.	8g'/J	.	8bbb'\J	.
=77	=77	=77	=77	=77	=77	=77	=77
4G\	f	(8g\L	.	(8b\L	.	(8bbb\L	.
.	.	8b\)	.	8dd\)	.	8ggg\)	.
8GG'/L	.	8dd'\	.	8b'\	.	8dddd'\	.
8BB'/J	.	8b'\J	.	8dd'\J	.	8dddd'\J	.
(8D/L	.	(8g\L	.	(8gg\L	.	8dddd'\L	.
8G/)	.	8d\)	.	8bb\)	.	8dddd'\	.
8GG'/	.	8dd'\	.	8b'\	.	8dddd'\	.
8BB'/J	.	8b'\J	.	8dd'\J	.	8dddd'\J	.
=78	=78	=78	=78	=78	=78	=78	=78
(8D\L	.	(8g\L	.	(8gg\L	.	4dddd\	.
8G\J)	.	8d\J)	.	8bb\J)	.	.	.
4GG'/	.	4r	.	4r	.	8B'/L	.
.	.	.	.	.	.	8G'/J	.
4AA'/	.	2r	.	2r	.	8c'/L	.
.	.	.	.	.	.	8G'/	.
4BB'/	.	.	.	.	.	8d'/	.
.	.	.	.	.	.	8G'/J	.
=79	=79	=79	=79	=79	=79	=79	=79
4C'/	.	1r	.	1r	.	4e'/	.
4r	.	.	.	.	.	(4eS/	p
2r	.	.	.	.	.	4f#/	.
.	.	.	.	.	.	4g/)	.
=80	=80	=80	=80	=80	=80	=80	=80
(2D\	p	(2G/	p	(2B/	p	2G/	.
2DD/)	.	2F#/)	.	4d/	.	&(4.A/)	.
.	.	.	.	4c/)	.	.	.
.	.	.	.	.	.	8G/&)	.
=81	=81	=81	=81	=81	=81	=81	=81
4GG/	.	4G/	.	8B/	.	8G/	.
.	.	.	.	8r	.	8r	.
4r	.	4r	.	(4B/	mf	(4g/	mf
2r	.	2r	.	8A'/)	.	8f#'/)	.
.	.	.	.	8r	.	8r	.
.	.	.	.	(4c/	.	(4a/	.
=82	=82	=82	=82	=82	=82	=82	=82
1r	.	4r	.	8B'/)	.	8g'/)	.
.	.	.	.	8r	.	8r	.
.	.	(4g\	mf	(4g/	.	(4b\	.
.	.	8G'/)	.	8f#'/)	.	8a'/)	.
.	.	8r	.	8r	.	8r	.
.	.	(4g\	.	(4a/	.	(4cc\	.
=83	=83	=83	=83	=83	=83	=83	=83
4r	.	8G'/)	.	8g'/)	.	8b'\)	.
.	.	8r	.	8r	.	8r	.
(4G\	mf	4r	.	(4b\	.	(4dd\	.
8GG'/)	.	2r	.	8a'/)	.	8cc'\)	.
8r	.	.	.	8r	.	8r	.
(4G\	.	.	.	(4cc\	.	(4ee\	.
=84	=84	=84	=84	=84	=84	=84	=84
8GG'/)	.	1r	.	8b'\)	.	8dd'\)	.
8r	.	.	.	8r	.	8r	.
4r	.	.	.	4r	.	4r	.
2r	.	.	.	4r	.	4r	.
.	.	.	.	(4a#/	.	(4cc#\	.
=85	=85	=85	=85	=85	=85	=85	=85
1r	.	1r	.	8b'\)	.	8dd'\)	.
.	.	.	.	8r	.	8r	.
.	.	.	.	(4a#/	.	(4cc#\	.
.	.	.	.	8b'\)	.	8dd'\)	.
.	.	.	.	8r	.	8r	.
.	.	.	.	(4cc#\	.	(4ee\	.
=86	=86	=86	=86	=86	=86	=86	=86
1r	.	1r	.	8dd'\)	.	8ffn'\)	.
.	.	.	.	8r	.	8r	.
.	.	.	.	4r	.	4r	.
.	.	.	.	4r	.	4r	.
.	.	.	.	(4c#/	p	(4ee\	p
=87a	=87a	=87a	=87a	=87a	=87a	=87a	=87a
*>1st ending	*	*>1st ending	*	*>1st ending	*	*>1st ending	*
1r	.	1r	.	8d'/)	.	8ff'\)	.
.	.	.	.	8r	.	8r	.
.	.	.	.	(4c#/	.	(4ee\	.
.	.	.	.	8d'/)	.	8ff'\)	.
.	.	.	.	8r	.	8r	.
.	.	.	.	4d#/	.	4ff#\	.
=87b:|!	=87b:|!	=87b:|!	=87b:|!	=87b:|!	=87b:|!	=87b:|!	=87b:|!
*>2nd ending	*	*>2nd ending	*	*>2nd ending	*	*>2nd ending	*
*>B	*	*>B	*	*>B	*	*>B	*
1r	.	1r	.	8d/	.	8ff\	.
.	.	.	.	8r	.	8r	.
.	.	.	.	(4d#/	.	(4ff#\	.
.	.	.	.	8e'/)	.	8gg'\)	.
.	.	.	.	8r	.	8r	.
.	.	.	.	4f#/	.	4aa\	.
=88!|:	=88!|:	=88!|:	=88!|:	=88!|:	=88!|:	=88!|:	=88!|:
*>C	*	*>C	*	*>C	*	*>C	*
[1C/	f	1en\ 1B-\	f	1g/	f	2.bb-\	f
!	!	!	!	!	!	! (32cccP/LLL	!
!	!	!	!	!	!	! 32bb-P/	!
!	!	!	!	!	!	! 32aaP/JJJ	!
.	.	.	.	.	.	&(4bb-p\)	.
=89	=89	=89	=89	=89	=89	=89	=89
1C/_	.	[1B-/	.	[1e/ [1G/	.	4ddd\&)	.
.	.	.	.	.	.	4gg'\	.
.	.	.	.	.	.	4bb-\	.
!	!	!	!	!	!	! (32ffP/LLL	!
!	!	!	!	!	!	! 32eeP/	!
!	!	!	!	!	!	! 32ddP/JJJ	!
.	.	.	.	.	.	&(4eep\)	.
=90	=90	=90	=90	=90	=90	=90	=90
2.C/]	.	2.B-/]	.	2.e/] 2.G/]	.	4gg\&)	.
.	.	.	.	.	.	4b-'\	.
.	.	.	.	.	.	4dd'\	.
(4GS\	.	(4gS\	.	(4gS/	.	(4gS/	.
=91	=91	=91	=91	=91	=91	=91	=91
4B-\)	.	4b-\)	.	4b-\)	.	4b-\)	.
4E'\	.	4e'\	.	4e'/	.	4e'/	.
4G'\	.	4g'\	.	4g'/	.	4g'/	.
(4BB-S/	.	(4B-S/	.	(4B-S/	.	(4B-S/	.
=92	=92	=92	=92	=92	=92	=92	=92
4AA/)	.	4A/)	.	4A/)	.	4A/)	.
4C'/	.	4c'\	.	4c'/	.	4c'/	.
4F'\	.	4f'\	.	4f'/	.	4f'/	.
4r	.	(4e\	.	(4gS/	.	(4b-S\	.
=93	=93	=93	=93	=93	=93	=93	=93
2r	.	4f\)	.	4f/)	.	4a/)	.
.	.	4r	.	4r	.	4cc'\	.
4r	.	4r	.	4r	.	4ff'\	.
(4CS/	p	8B-'/L	p	(4eeS\	p	(4ggS\	p
.	.	8c'/J	.	.	.	.	.
=94	=94	=94	=94	=94	=94	=94	=94
4F\)	.	8A'\L	.	4ff\)	.	4aa\)	.
.	.	8c'\	.	.	.	.	.
4r	.	8f'\	.	4r	.	4ff'\	.
.	.	8c'\J	.	.	.	.	.
4r	.	8A'/L	.	4r	.	4cc'\	.
.	.	8c'/	.	.	.	.	.
(4eS\	.	8B-'/	.	(4gS/	.	4r	.
.	.	8c'/J	.	.	.	.	.
=95	=95	=95	=95	=95	=95	=95	=95
4f\)	.	8A\L	.	4a/)	.	2r	.
.	.	8c\	.	.	.	.	.
4r	.	8f\	.	4f'/	.	.	.
.	.	8c\J	.	.	.	.	.
4r	.	8A\L	.	4c'/	.	4r	.
.	.	8f\	.	.	.	.	.
!	!	!	!	!	!	! (32bb-P/LLL	!
!	!	!	!	!	!	! 32aaP/	!
!	!	!	!	!	!	! 32ggP/JJJ	!
(4D\	.	8c\	.	(4ff#S\	.	&(4aap\)	.
.	.	8d\J	.	.	.	.	.
=96	=96	=96	=96	=96	=96	=96	=96
4GG/)	.	8B-\L	.	4gg\)	.	4bb-\&)	.
.	.	8d\	.	.	.	.	.
4r	.	8g\	.	4r	.	4gg'\	.
.	.	8d\J	.	.	.	.	.
4r	.	8B-\L	.	4r	.	4dd'\	.
.	.	8d\	.	.	.	.	.
!	!	!	!	! (32b-P/LLL	!	!	!
!	!	!	!	! 32aP/	!	!	!
!	!	!	!	! 32gP/JJJ	!	!	!
*clefC4	*	*	*	*	*	*	*
(4f#S\	.	8c\	.	&(4ap/)	.	4r	.
.	.	8d\J	.	.	.	.	.
=97	=97	=97	=97	=97	=97	=97	=97
4g\)	.	8B-\L	.	4b-\&)	.	2r	.
.	.	8d\	.	.	.	.	.
4r	.	8g\	.	4g'/	.	.	.
.	.	8d\J	.	.	.	.	.
2r	.	8B-\L	.	4d'/	.	4r	.
.	.	8d\	.	.	.	.	.
.	.	8g\	mf	4r	.	(4bb-S\	mf
.	.	8d\J	.	.	.	.	.
*clefF4	*	*	*	*	*	*	*
=98	=98	=98	=98	=98	=98	=98	=98
1GG/	mf	8B-\L	.	4r	.	4eee-\)	.
.	.	8e-\	.	.	.	.	.
.	.	8g\	.	(2e-/	mf	4bb-'\	.
.	.	8e-\J	.	.	.	.	.
.	.	8B-\L	.	.	.	4gg'\	.
.	.	8e-\	.	.	.	.	.
.	.	8g\	.	4B-/)	.	4ee-'\	.
.	.	8e-\J	.	.	.	.	.
=99	=99	=99	=99	=99	=99	=99	=99
! cresc.	!	!	!	! cresc.	!	! cresc.	!
1GG#/	.	4f'\	.	4d'/	.	4dd'\	.
!	!	! cresc.	!	!	!	!	!
.	.	(4D/	.	4r	.	(4f/	.
.	.	4En/	.	4r	.	4en/	.
.	.	4F/)	.	(4dd\	.	4d/)	.
=100	=100	=100	=100	=100	=100	=100	=100
2AA/	f	4E/	f	4cc#\)	f	(8a\L	.
.	.	.	.	.	.	8aa\)	.
.	.	4r	.	4r	.	(8bb-\	.
.	.	.	.	.	.	8aa\J)	.
4r	.	4r	.	4r	.	8gg#'\L	.
.	.	.	.	.	.	8aa'\	.
(4c#\	.	(4a\	.	(4ee\	.	8ggn'\	.
.	.	.	.	.	.	8aa'\J	.
=101	=101	=101	=101	=101	=101	=101	=101
8d\)	.	8A/)	.	8ff\)	.	8ff'\L	.
8r	.	8r	.	8r	.	8dd'\	.
4r	.	4r	.	4r	.	8ff'\	.
.	.	.	.	.	.	8aa'\J	.
4r	.	4r	.	4r	.	8ddd'\L	.
.	.	.	.	.	.	8aa'\	.
(4d\	.	(4a\	.	(4ff\	.	8ff'\	.
.	.	.	.	.	.	8dd'\J	.
=102	=102	=102	=102	=102	=102	=102	=102
8c#\)	.	8A/)	.	8ee\)	.	(8a\L	.
8r	.	8r	.	8r	.	8aa\)	.
4r	.	4r	.	4r	.	(8bb-\	.
.	.	.	.	.	.	8aa\J)	.
4r	.	4r	.	4r	.	8gg#'\L	.
.	.	.	.	.	.	8aa'\	.
(4c#S\	.	(4a\	.	(4eeS\	.	8ggn'\	.
.	.	.	.	.	.	8aa'\J	.
=103	=103	=103	=103	=103	=103	=103	=103
8d\)	.	8A/)	.	8ff\)	.	8ff'\L	.
8r	.	8r	.	8r	.	8dd'\	.
4r	.	4r	.	4r	.	8ff'\	.
.	.	.	.	.	.	8aa'\J	.
4r	.	4r	.	4r	.	8ddd'\L	.
.	.	.	.	.	.	8aa'\	.
(4dS\	.	(4a\	.	(4ffS\	.	8ff'\	.
.	.	.	.	.	.	8dd'\J	.
=104	=104	=104	=104	=104	=104	=104	=104
8c#\)	.	8A/)	.	8ee\)	.	(8a\L	.
8r	.	8r	.	8r	.	8aa\)	.
4r	.	4r	.	4r	.	(8bb-\	.
.	.	.	.	.	.	8aa\J)	.
4r	.	4r	.	4r	.	8gg#'\L	.
.	.	.	.	.	.	8aa'\	.
(4c#\	.	(4a\	.	4A/	.	8ggn'\	.
.	.	.	.	.	.	8aa'\J	.
=105	=105	=105	=105	=105	=105	=105	=105
8dn\)	.	8A/)	.	(8d/L	.	4ff\	.
8r	.	8r	.	8dd/)	.	.	.
4r	.	4r	.	(8ee-/	.	2ff#\	.
.	.	.	.	8dd/J)	.	.	.
2r	.	2r	.	8cc#'\L	.	.	.
.	.	.	.	8dd'\	.	.	.
.	.	.	.	8ccn'\	.	4aa\	.
.	.	.	.	8dd'\J	.	.	.
=106	=106	=106	=106	=106	=106	=106	=106
1r	.	1r	.	8b-'\L	.	4gg\	.
.	.	.	.	8dd'\	.	.	.
.	.	.	.	8a'\	.	(4aaS\	.
.	.	.	.	8dd'\J	.	.	.
.	.	.	.	8g'/L	.	4bb-\)	.
.	.	.	.	8dd'/	.	.	.
.	.	.	.	8f'/	.	4ddd\	.
.	.	.	.	8dd'/J	.	.	.
=107	=107	=107	=107	=107	=107	=107	=107
1r	.	1r	.	(8en/L	.	4ccc\	.
.	.	.	.	8cc/)	.	.	.
.	.	.	.	(8dd/	.	2ee\	.
.	.	.	.	8cc/J)	.	.	.
.	.	.	.	8bn'\L	.	.	.
.	.	.	.	8cc'\	.	.	.
.	.	.	.	8b-'\	.	4gg\	.
.	.	.	.	8cc'\J	.	.	.
=108	=108	=108	=108	=108	=108	=108	=108
1r	.	1r	.	8a'/L	.	4ff\	.
.	.	.	.	8cc'/	.	.	.
.	.	.	.	8g'/	.	(4ggS\	.
.	.	.	.	8cc'/J	.	.	.
.	.	.	.	8f'/L	.	4aa\	.
.	.	.	.	8cc'/	.	.	.
.	.	.	.	8e'/	.	4ccc\)	.
.	.	.	.	8cc'/J	.	.	.
=109	=109	=109	=109	=109	=109	=109	=109
1r	.	1r	.	(8d/L	.	4bb-\	.
.	.	.	.	8b-/)	.	.	.
.	.	.	.	(8cc/	.	2dd\	.
.	.	.	.	8b-/J)	.	.	.
.	.	.	.	8cc'/L	.	.	.
.	.	.	.	8b-'/	.	.	.
.	.	.	.	8a'/	.	4ff\	.
.	.	.	.	8b-'/J	.	.	.
=110	=110	=110	=110	=110	=110	=110	=110
1r	.	1r	.	8g'/L	.	4ee\	.
.	.	.	.	8b-'/	.	.	.
.	.	.	.	8f'/	.	(4ffS\	.
.	.	.	.	8b-'/J	.	.	.
.	.	.	.	8en'/L	.	4gg\)	.
.	.	.	.	8b-'/	.	.	.
.	.	.	.	8d'/	.	4bb-\	.
.	.	.	.	8b-'/J	.	.	.
=111	=111	=111	=111	=111	=111	=111	=111
(8AA\L	.	2r	.	4c#/	.	4aa\	.
8A\)	.	.	.	.	.	.	.
(8B-\	.	.	.	2e/	.	2cc#\	.
8A\J)	.	.	.	.	.	.	.
8G#'\L	.	4r	.	.	.	.	.
8A'\	.	.	.	.	.	.	.
8Gn'\	.	4A/	.	4c#/	.	4ee\	.
8A'\J	.	.	.	.	.	.	.
=112	=112	=112	=112	=112	=112	=112	=112
8F'\L	.	8a'\L	.	4d/	.	4dd\	.
8G'\	.	8b-'\	.	.	.	.	.
8E'\	.	8g'\	.	4r	.	(4eeS\	.
8F'\J	.	8a'\J	.	.	.	.	.
8D'\L	.	8f'\L	.	4r	.	4ff\)	.
8E'\	.	8g'\	.	.	.	.	.
8C'\	.	8a'\	.	4d/	.	4ff#\	.
8D'\J	.	8f#'\J	.	.	.	.	.
=113	=113	=113	=113	=113	=113	=113	=113
8BB-/L	.	4e\	.	8dd'\L	.	4gg\	.
8C/	.	.	.	8ee-'\	.	.	.
8AA/	.	4f#\	.	8ccn'\	.	(4aaS\	.
8BB-/J	.	.	.	8dd'\J	.	.	.
8GG/L	.	4g\	.	8b-'\L	.	4bb-\)	.
8AA/	.	.	.	8cc'\	.	.	.
8FF/	.	4r	.	8a'\	.	4ddd\	.
8GG/J	.	.	.	8b-'\J	.	.	.
=114	=114	=114	=114	=114	=114	=114	=114
8EE/L	.	2r	.	8g'/L	.	2.cccn\	.
8FF/	.	.	.	8a'/	.	.	.
8DD/	.	.	.	8f'/	.	.	.
8EE/J	.	.	.	8g'/J	.	.	.
8CC/L	.	4r	.	8e'/L	.	.	.
8C/	.	.	.	8b-'/	.	.	.
8EE/	.	(4G/	.	8a'/	.	(4bb-\	.
8C/J	.	.	.	8g'/J	.	.	.
=115	=115	=115	=115	=115	=115	=115	=115
4FF/	.	4A/)	.	(8f/L	.	8aa'\)	.
.	.	.	.	8cc/)	.	8r	.
4r	.	4r	.	(8dd/	.	(4ff\	.
.	.	.	.	8cc/J)	.	.	.
4r	.	4r	.	8bn'/L	.	8cc'\)	.
.	.	.	.	8cc'/	.	8r	.
(4F\	.	(4f\	.	8f'/	.	(4aa\	.
.	.	.	.	8cc'/J	.	.	.
=116	=116	=116	=116	=116	=116	=116	=116
4C/)	.	4g\)	.	(8e/L	.	8bb-'\)	.
.	.	.	.	8cc/)	.	8r	.
4r	.	4r	.	(8dd/	.	(4gg\	.
.	.	.	.	8cc/J)	.	.	.
4r	.	4r	.	8bn'/L	.	8cc'\)	.
.	.	.	.	8cc'/	.	8r	.
(4C/	.	(4g\	.	8e'/	.	(4bb-\	.
.	.	.	.	8cc'/J	.	.	.
=117	=117	=117	=117	=117	=117	=117	=117
4F\)	.	4a\)	.	(8f/L	.	8aa'\)	.
.	.	.	.	8cc/)	.	8r	.
4r	.	4r	.	(8dd/	.	(4ff\	.
.	.	.	.	8cc/J)	.	.	.
4r	.	4r	.	8b'/L	.	8cc'\)	.
.	.	.	.	8cc'/	.	8r	.
(4F\	.	(4f\	.	8f'/	.	(4aa\	.
.	.	.	.	8cc'/J	.	.	.
=118	=118	=118	=118	=118	=118	=118	=118
4C/)	.	4g\)	.	(8e/L	.	8bb-'\)	.
.	.	.	.	8cc/)	.	8r	.
4r	.	4r	.	(8dd/	.	(4gg\	.
.	.	.	.	8cc/J)	.	.	.
4r	.	4r	.	8bn'/L	.	8cc'\)	.
.	.	.	.	8cc'/	.	8r	.
(4C/	.	4e\	.	8e'/	.	(4bb-\	.
.	.	.	.	8cc'/J	.	.	.
=119	=119	=119	=119	=119	=119	=119	=119
4F\)	.	8f'\L	.	4f/	.	8aa'\)	.
.	.	8a'\	.	.	.	8r	.
4r	.	8f'\	.	4r	.	(4ee\	.
.	.	8a'\J	.	.	.	.	.
2r	.	8f\L	.	2r	.	8ff'\)	.
.	.	8a\	.	.	.	8r	.
.	.	8f\	.	.	.	(4cc#\	.
.	.	8a\J	.	.	.	.	.
=120	=120	=120	=120	=120	=120	=120	=120
1r	.	8f#\L	.	1r	.	8dd'\)	.
.	.	8a\	.	.	.	8r	.
.	.	8f#\	.	.	.	(4a/	.
.	.	8a\J	.	.	.	.	.
.	.	8f#\L	.	.	.	8bn'\)	.
.	.	8a\	.	.	.	8r	.
.	.	8f#\	.	.	.	(4ccn\	.
.	.	8a\J	.	.	.	.	.
=121	=121	=121	=121	=121	=121	=121	=121
1r	.	4g\	.	4r	.	8b'\)	.
.	.	.	.	.	.	8r	.
!	!	!	!	! decresc.	!	! decresc.	!
.	.	4r	.	(4a/	.	(4cc\	.
.	.	2r	.	8b'\)	.	8dd'\)	.
.	.	.	.	8r	.	8r	.
.	.	.	.	(4cc#\	.	(4ee\	.
=122	=122	=122	=122	=122	=122	=122	=122
1r	.	4r	.	8dd'\)	.	8ff'\)	.
.	.	.	.	8r	.	8r	.
!	!	! decresc.	!	!	!	!	!
.	.	(4g\	.	4r	.	4r	.
.	.	8G/)	.	4r	.	4r	.
.	.	8r	.	.	.	.	.
.	.	4r	.	(4cc#\	p	(4ee\	p
=123	=123	=123	=123	=123	=123	=123	=123
1r	.	1r	.	8dd'\)	.	8ff'\)	.
.	.	.	.	8r	.	8r	.
.	.	.	.	(4cc#\	.	(4ee\	.
.	.	.	.	8dd'\)	.	8ff'\)	.
.	.	.	.	8r	.	8r	.
.	.	.	.	(4cc#\	.	(4ee\	.
=124	=124	=124	=124	=124	=124	=124	=124
1r	.	4r	.	8dd'\)	.	8ff'\)	.
.	.	.	.	8r	.	8r	.
.	.	(4g\	p	4r	.	4r	.
.	.	8G'/)	.	4r	.	4r	.
.	.	8r	.	.	.	.	.
.	.	4r	.	(4c#/	.	(4ee\	.
=125	=125	=125	=125	=125	=125	=125	=125
1r	.	1r	.	8d'/)	.	8ff'\)	.
.	.	.	.	8r	.	8r	.
.	.	.	.	(4c#/	.	(4ee\	.
.	.	.	.	8d'/)	.	8ff'\)	.
.	.	.	.	8r	.	8r	.
.	.	.	.	4d#/	.	4ff#\	.
=126	=126	=126	=126	=126	=126	=126	=126
8CC'/L	f	[1c\	f	[1e/ [1G/	f	2.gg\	f
8EE'/	.	.	.	.	.	.	.
8GG'/	.	.	.	.	.	.	.
8C'/J	.	.	.	.	.	.	.
8E'/L	.	.	.	.	.	.	.
8C'/	.	.	.	.	.	.	.
!	!	!	!	!	!	! (32aaP/LLL	!
!	!	!	!	!	!	! 32ggP/	!
!	!	!	!	!	!	! 32ff#P/JJJ	!
8GG'/	.	.	.	.	.	&(4ggp\)	.
8EE'/J	.	.	.	.	.	.	.
=127	=127	=127	=127	=127	=127	=127	=127
[1CC/	.	1c\_	.	1e/_ 1G/_	.	4ccc\&)	.
.	.	.	.	.	.	4ee'\	.
.	.	.	.	.	.	4gg'\	.
!	!	!	!	!	!	! (32ddP/LLL	!
!	!	!	!	!	!	! 32ccP/	!
!	!	!	!	!	!	! 32bP/JJJ	!
.	.	.	.	.	.	&(4ccp\)	.
=128	=128	=128	=128	=128	=128	=128	=128
2CC/]	.	2c\]	.	2.e/] 2.G/]	.	4ee\&)	.
.	.	.	.	.	.	4g'/	.
2r	.	2r	.	.	.	4cc'\	.
.	.	.	.	4c'/	.	(8e/ 8G/L	.
.	.	.	.	.	.	8g/J	.
=129	=129	=129	=129	=129	=129	=129	=129
*	*	*	*	*	*	*^	*
1r	.	1r	.	4d'/	.	8f/L	1G\	.
.	.	.	.	.	.	8g/	.	.
.	.	.	.	4c'/	.	8e/	.	.
.	.	.	.	.	.	8f/J	.	.
.	.	.	.	4B'/	.	8d/L	.	.
.	.	.	.	.	.	8f/	.	.
.	.	.	.	4c'/	.	8e/	.	.
.	.	.	.	.	.	8g/J)	.	.
=130	=130	=130	=130	=130	=130	=130	=130	=130
*	*	*	*	*	*	*v	*v	*
1r	.	1r	.	4d'/	.	4f/ 4G'/	.
.	.	.	.	4r	.	4b'\	.
.	.	.	.	2r	.	4dd'\	.
.	.	.	.	.	.	4r	.
=131	=131	=131	=131	=131	=131	=131	=131
1r	.	1r	.	1r	.	4ff'\	pp
.	.	.	.	.	.	4bb'\	.
.	.	.	.	.	.	4ddd'\	.
.	.	.	.	.	.	4r	.
=132	=132	=132	=132	=132	=132	=132	=132
8GG'/L	f	[1f\	f	[1b/ [1d/	f	2.ff\	f
8BB'/	.	.	.	.	.	.	.
8D'/	.	.	.	.	.	.	.
8G'/J	.	.	.	.	.	.	.
8B'\L	.	.	.	.	.	.	.
8G'\	.	.	.	.	.	.	.
!	!	!	!	!	!	! (32ggP/LLL	!
!	!	!	!	!	!	! 32ffP/	!
!	!	!	!	!	!	! 32eeP/JJJ	!
8D'\	.	.	.	.	.	&(4ffp\)	.
8BB'\J	.	.	.	.	.	.	.
=133	=133	=133	=133	=133	=133	=133	=133
[1GG/	.	1f\_	.	1b/_ 1d/_	.	4aa\&)	.
.	.	.	.	.	.	4dd'\	.
.	.	.	.	.	.	4ff'\	.
!	!	!	!	!	!	! (32ccP/LLL	!
!	!	!	!	!	!	! 32bP/	!
!	!	!	!	!	!	! 32aP/JJJ	!
.	.	.	.	.	.	&(4bp\)	.
=134	=134	=134	=134	=134	=134	=134	=134
2GG/]	.	2.f\]	.	2b/] 2d/]	.	4dd\&)	.
.	.	.	.	.	.	4f'/	.
2r	.	.	.	2r	.	4a'/	.
.	.	(8B/L	.	.	.	(8d/ 8G/L	.
.	.	8c/J)	.	.	.	8e/J	.
=135	=135	=135	=135	=135	=135	=135	=135
*	*	*	*	*	*	*^	*
1r	.	4d'\	.	1r	.	8f/L	1G\	.
.	.	.	.	.	.	8g/	.	.
.	.	4c'\	.	.	.	8e/	.	.
.	.	.	.	.	.	8g/J	.	.
.	.	4d'\	.	.	.	8f/L	.	.
.	.	.	.	.	.	8g/	.	.
.	.	4B'/	.	.	.	8d/	.	.
.	.	.	.	.	.	8f/J)	.	.
=136	=136	=136	=136	=136	=136	=136	=136	=136
*	*	*	*	*	*	*v	*v	*
1r	.	4c'\	.	1r	.	4e/ 4G'/	.
.	.	4r	.	.	.	4cc'\	.
.	.	2r	.	.	.	4ee'\	.
.	.	.	.	.	.	4r	.
=137	=137	=137	=137	=137	=137	=137	=137
1r	.	1r	.	1r	.	4gg'\	pp
.	.	.	.	.	.	4ccc'\	.
.	.	.	.	.	.	4eee'\	.
.	.	.	.	.	.	4r	.
=138	=138	=138	=138	=138	=138	=138	=138
[1AA-/	f	8A-'\L	f	8c'/L	f	2.cc\	f
.	.	8c'\	.	8e-'/	.	.	.
.	.	8e-'\	.	8a-'/	.	.	.
.	.	8a-'\J	.	8cc'/J	.	.	.
.	.	8cc'\L	.	8ee-'/L	.	.	.
.	.	8a-'\	.	8cc'/	.	.	.
!	!	!	!	!	!	! (32dd-P/LLL	!
!	!	!	!	!	!	! 32ccP/	!
!	!	!	!	!	!	! 32b-P/JJJ	!
.	.	8e-'\	.	8a-'/	.	&(4ccp\)	.
.	.	8c'\J	.	8e-'/J	.	.	.
=139	=139	=139	=139	=139	=139	=139	=139
1AA-/_	.	4A-/	.	4c/	.	4ee-\&)	.
.	.	2c\	.	2e-/	.	4a-'/	.
.	.	.	.	.	.	4cc'\	.
.	.	4c\	.	4e-/	.	(4e-S/	.
=140	=140	=140	=140	=140	=140	=140	=140
2AA-/]	.	2c\	.	2.e-/	.	4a-/)	.
.	.	.	.	.	.	4c'/	.
2r	.	2r	.	.	.	4e-'/	.
.	.	.	.	4A-'/	p	(8c/L	p
.	.	.	.	.	.	8e-/J)	.
=141	=141	=141	=141	=141	=141	=141	=141
2r	.	2r	.	4B-'/	.	8d-'/L	.
.	.	.	.	.	.	8e-'/	.
.	.	.	.	4A-'/	.	8c'/	.
.	.	.	.	.	.	8e-'/J	.
4r	.	4r	.	4G'/	.	8B-'/L	.
.	.	.	.	.	.	8e-'/	.
(4E-S\	p	(4G/	p	4B-'/	.	8d-'/	.
.	.	.	.	.	.	8e-'/J	.
=142	=142	=142	=142	=142	=142	=142	=142
4A-\)	.	4A-/)	.	4A-/	.	(8c/L	.
.	.	.	.	.	.	8e-/)	.
4AA-/	.	4c'\	.	4r	.	8a-'/	.
.	.	.	.	.	.	8cc'/J	.
2r	.	2r	.	4r	.	(8ee-/L	.
.	.	.	.	.	.	8cc/)	.
.	.	.	.	4c'/	.	8a-'/	.
.	.	.	.	.	.	8e-'/J	.
=143	=143	=143	=143	=143	=143	=143	=143
2r	.	2r	.	4B-'/	.	8d-'/L	.
.	.	.	.	.	.	8e-'/	.
.	.	.	.	4A-'/	.	8c'/	.
.	.	.	.	.	.	8e-'/J	.
4r	.	4r	.	4G'/	.	8B-'/L	.
.	.	.	.	.	.	8e-'/	.
(4E-S\	.	(4G/	.	4B-'/	.	8d-'/	.
.	.	.	.	.	.	8e-'/J	.
=144	=144	=144	=144	=144	=144	=144	=144
4A-'\)	.	4A-/)	.	4A-'/	.	(8c/L	.
.	.	.	.	.	.	8e-/)	.
4AA-/	.	4c'\	.	4r	.	8a-'/	.
.	.	.	.	.	.	8cc'/J	.
2r	.	2r	.	4r	.	(8ee-/L	.
.	.	.	.	.	.	8cc/)	.
.	.	.	.	4c'/	.	8a-'/	.
.	.	.	.	.	.	8e-'/J	.
=145	=145	=145	=145	=145	=145	=145	=145
2r	.	2r	.	4B-'/	.	8d-'/L	.
.	.	.	.	.	.	8e-'/	.
.	.	.	.	4A-'/	.	8c'/	.
.	.	.	.	.	.	8e-'/J	.
4r	.	4r	.	4G'/	.	8B-'/L	.
.	.	.	.	.	.	8e-'/	.
4E-\	.	(4G/	.	4B-'/	.	8d-'/	.
.	.	.	.	.	.	8e-'/J	.
=146	=146	=146	=146	=146	=146	=146	=146
! poco cresc.	!	! poco cresc.	!	! poco cresc.	!	! poco cresc.	!
2.AA-/	.	4A-/)	.	4c/	.	(8c/L	.
.	.	.	.	.	.	8e-/)	.
.	.	4c'\	.	2e-/	.	8a-'/	.
.	.	.	.	.	.	8cc'/J	.
.	.	2r	.	.	.	(8ee-\L	.
.	.	.	.	.	.	8dd-\)	.
4GG-/	.	.	.	4enS/	.	8cc'\	.
.	.	.	.	.	.	8b-'\J	.
=147	=147	=147	=147	=147	=147	=147	=147
1FF/	.	4r	.	4f'/	.	8an'/L	.
.	.	.	.	.	.	8cc'/	.
.	.	4F'/	.	4e-'/	.	8g-'/	.
.	.	.	.	.	.	8cc'/J	.
.	.	4G'/	.	4d-'/	.	8f'/L	.
.	.	.	.	.	.	8cc'/	.
.	.	4An'/	.	4c'/	.	8e-'/	.
.	.	.	.	.	.	8cc'/J	.
=148	=148	=148	=148	=148	=148	=148	=148
2.BB-/	.	4B-'/	.	4B-'/	.	(8dn/L	.
.	.	.	.	.	.	8f/)	.
.	.	4dn'\	.	2f/	.	8b-'/	.
.	.	.	.	.	.	8dd'/J	.
.	.	2r	.	.	.	(8ff\L	.
.	.	.	.	.	.	8ee-\)	.
4AA-/	.	.	.	4f#S/	.	8dd'\	.
.	.	.	.	.	.	8cc'\J	.
=149	=149	=149	=149	=149	=149	=149	=149
1GGn/	.	4r	.	4g'/	.	8bn'\L	.
.	.	.	.	.	.	8dd'\	.
.	.	4G'/	.	4fn'/	.	8a-'\	.
.	.	.	.	.	.	8dd'\J	.
.	.	4An'/	.	4e-'/	.	8g'/L	.
.	.	.	.	.	.	8dd'/	.
.	.	4Bn'/	.	4d'/	.	8f'/	.
.	.	.	.	.	.	8dd'/J	.
=150	=150	=150	=150	=150	=150	=150	=150
! pi\8u cresc.	!	! pi\8u cresc.	!	! pi\u8 cresc.	!	! pi\8u cresc.	!
1C/	.	4c\	.	4e-/	.	(8e-/L	.
.	.	.	.	.	.	8g/)	.
.	.	2e-\	.	2g/	.	8cc'/	.
.	.	.	.	.	.	8ee-'/J	.
.	.	.	.	.	.	(8gg\L	.
.	.	.	.	.	.	8ee-\)	.
.	.	4E-/	.	[4cc\	.	8dd'\	.
.	.	.	.	.	.	8cc'\J	.
=151	=151	=151	=151	=151	=151	=151	=151
2.F\	.	2.F/	.	4cc\]	.	8aa-'\L	.
.	.	.	.	.	.	8gg'\	.
.	.	.	.	8a-'/L	.	8ff'\	.
.	.	.	.	8g'/J	.	8ee-'\J	.
.	.	.	.	8f'/L	.	8dd'\L	.
.	.	.	.	8e-'/	.	8cc'\	.
4F#\	.	4F#/	.	8d'/	.	8bn'\	.
.	.	.	.	8e-'/J	.	8cc'\J	.
=152	=152	=152	=152	=152	=152	=152	=152
4G\	f	(8G\L	.	4d/	f	4b'\	f
.	.	8g\)	.	.	.	.	.
4r	.	8a-'\	.	4r	.	2gg\	.
.	.	8g'\J	.	.	.	.	.
2r	.	8f#'\L	.	2r	.	.	.
.	.	8g'\	.	.	.	.	.
.	.	8fn'\	.	.	.	4bS\	.
.	.	8g'\J	.	.	.	.	.
=153	=153	=153	=153	=153	=153	=153	=153
1r	.	8e-'\L	.	4r	.	4cc'\	.
.	.	8g'\	.	.	.	.	.
.	.	8d'\	.	4BS'/	.	4dd'\	.
.	.	8g'\J	.	.	.	.	.
.	.	8c'\L	.	4c'/	.	4ee-'\	.
.	.	8g'\	.	.	.	.	.
.	.	8A-'\	.	4cc'\	.	4ff#S\	.
.	.	8g'\J	.	.	.	.	.
=154	=154	=154	=154	=154	=154	=154	=154
(8GG\L	.	4G/	.	4b\	.	4gg\	.
8G\)	.	.	.	.	.	.	.
(8A-\	.	4r	.	4r	.	2gg\	.
8G\J)	.	.	.	.	.	.	.
8F#'\L	.	4r	.	2r	.	.	.
8G'\	.	.	.	.	.	.	.
8Fn'\	.	4d'\	.	.	.	4bnS\	.
8G'\J	.	.	.	.	.	.	.
=155	=155	=155	=155	=155	=155	=155	=155
8E-'\L	.	4g\	.	1r	.	4cc'\	.
8G'\	.	.	.	.	.	.	.
8D'\	.	(4BS/	.	.	.	4dd'\	.
8G'\J	.	.	.	.	.	.	.
8C'\L	.	4c\)	.	.	.	4ee-'\	.
8G'\	.	.	.	.	.	.	.
8AA-'\	.	4cc'\	.	.	.	4ff#'\	.
8G'\J	.	.	.	.	.	.	.
=156	=156	=156	=156	=156	=156	=156	=156
[1GG/	fp	1b\	fp	1gg\	fp	8gg'\L	fp
.	.	.	.	.	.	(8gg\	.
.	.	.	.	.	.	8aan\	.
.	.	.	.	.	.	8gg\J	.
.	.	.	.	.	.	8ff#\L	.
.	.	.	.	.	.	8gg\	.
.	.	.	.	.	.	8aa\	.
.	.	.	.	.	.	8gg\J)	.
=157	=157	=157	=157	=157	=157	=157	=157
! cresc.	!	! cresc.	!	! cresc.	!	!	!
1GG/_	.	1cc\	.	1ff#\	.	8r	.
!	!	!	!	!	!	! cresc.	!
.	.	.	.	.	.	(8aa\L	.
.	.	.	.	.	.	8bbn\	.
.	.	.	.	.	.	8aa\J	.
.	.	.	.	.	.	8gg#\L	.
.	.	.	.	.	.	8aa\	.
.	.	.	.	.	.	8bb\	.
.	.	.	.	.	.	8aa\J)	.
=158	=158	=158	=158	=158	=158	=158	=158
1GG/_	.	1dd\	.	1ffn\	.	8r	.
.	.	.	.	.	.	(8bb\L	.
.	.	.	.	.	.	8ccc\	.
.	.	.	.	.	.	8bb\J	.
.	.	.	.	.	.	8aa\L	.
.	.	.	.	.	.	8bb\	.
.	.	.	.	.	.	8ccc\	.
.	.	.	.	.	.	8bb\J)	.
=159	=159	=159	=159	=159	=159	=159	=159
1GG/_	f	1cc\	f	1een\	f	8r	.
.	.	.	.	.	.	(8ccc\L	f
.	.	.	.	.	.	8ddd\	.
.	.	.	.	.	.	8ccc\J	.
.	.	.	.	.	.	8bb\L	.
.	.	.	.	.	.	8ccc\	.
.	.	.	.	.	.	8ddd\	.
.	.	.	.	.	.	8ccc\J)	.
=160	=160	=160	=160	=160	=160	=160	=160
1GG/_	.	1f\	.	1b\	.	8r	.
.	.	.	.	.	.	(8ddd\L	.
.	.	.	.	.	.	8eee\	.
.	.	.	.	.	.	8ddd\J	.
.	.	.	.	.	.	8ccc#\L	.
.	.	.	.	.	.	8ddd\	.
.	.	.	.	.	.	8eeen\	.
.	.	.	.	.	.	8ddd\J)	.
=161	=161	=161	=161	=161	=161	=161	=161
1GG/_	.	[1d\	.	[1b\	.	4fff'\	.
.	.	.	.	.	.	4ddd'\	.
.	.	.	.	.	.	4bb'\	.
.	.	.	.	.	.	4gg'\	.
=162	=162	=162	=162	=162	=162	=162	=162
1GG;/]	.	1d;\]	.	1b;\]	.	1ff;\	.
=163	=163	=163	=163	=163	=163	=163	=163
!	!	! p dolce	!	!	!	! p dolce	!
4C/	p	([2c\	.	4cc\	p	([2ee\	.
4r	.	.	.	4r	.	.	.
2r	.	8c\L]	.	2r	.	8ee\L]	.
.	.	8e\	.	.	.	8gg\	.
.	.	8d\	.	.	.	8ff\	.
.	.	8f\J)	.	.	.	8aa\J)	.
=164	=164	=164	=164	=164	=164	=164	=164
1r	.	8e'\	.	4r	.	8gg'\	.
.	.	8r	.	.	.	8r	.
.	.	(4e\	.	4g'/	.	(4gg\	.
.	.	8c'\)	.	4r	.	8ee'\)	.
.	.	8r	.	.	.	8r	.
.	.	(4d\	.	4g'/	.	(4ff\	.
=165	=165	=165	=165	=165	=165	=165	=165
1r	.	8B'/)	.	4r	.	8dd'\)	.
.	.	8r	.	.	.	8r	.
.	.	(4c\	.	4g'/	.	(4ee\	.
.	.	8E'/)	.	4r	.	8cc'\)	.
.	.	8r	.	.	.	8r	.
.	.	(4F/	.	4A'/	.	(8ee\L	.
.	.	.	.	.	.	8dd\J)	.
=166	=166	=166	=166	=166	=166	=166	=166
1r	.	8G'/)	.	4G'/	.	4g'/	.
.	.	8r	.	.	.	.	.
.	.	4r	.	4r	.	4g'/	.
.	.	2r	.	2r	.	4g'/	.
.	.	.	.	.	.	(8ee\L	.
.	.	.	.	.	.	8dd\J)	.
=167	=167	=167	=167	=167	=167	=167	=167
4BB'/	.	4G'/	.	4d'/	.	4f'/	.
4BB'/	.	4G'/	.	4d'/	.	4f'/	.
4BB'/	.	4G'/	.	4d'/	.	4f'/	.
4r	.	4r	.	4r	.	(4dd\	.
=168	=168	=168	=168	=168	=168	=168	=168
4C'/	.	4G'/	.	4e'/	.	8e'/)	.
.	.	.	.	.	.	8r	.
4r	.	4r	.	4r	.	(4cc\	.
4FF'/	.	4A'/	.	4d'/	.	8d'/)	.
.	.	.	.	.	.	8r	.
4r	.	4r	.	4r	.	(4a/	.
=169	=169	=169	=169	=169	=169	=169	=169
1GG/	.	(2E/	.	(2c/	.	2c/)	.
.	.	4G/	.	2B/)	.	&(4.d/)	.
.	.	4F/)	.	.	.	.	.
.	.	.	.	.	.	8c/&)	.
=170	=170	=170	=170	=170	=170	=170	=170
2C/	.	4E/	.	4c/	.	8c'/L	.
.	.	.	.	.	.	8e'/	.
.	.	4r	.	4r	.	8g'/	.
.	.	.	.	.	.	8b'/J	.
2r	.	2r	.	2r	.	8cc'\L	<
.	.	.	.	.	.	8dd'\	.
.	.	.	.	.	.	8ee'\	.
.	.	.	.	.	.	8ff'\J	]
=171	=171	=171	=171	=171	=171	=171	=171
!	!	! dolce	!	! dolce	!	!	!
1r	.	([2cc\	.	([2ee\	.	[1gg\	.
.	.	8cc\L]	.	8ee\L]	.	.	.
.	.	8ee\	.	8gg\	.	.	.
.	.	8dd\	.	8ff\	.	.	.
.	.	8ff\J)	.	8aa\J)	.	.	.
=172	=172	=172	=172	=172	=172	=172	=172
1r	.	8ee'\	.	8gg'\	.	1gg\_	.
.	.	8r	.	8r	.	.	.
.	.	(4ee\	.	(4gg\	.	.	.
.	.	8cc'\)	.	8ee'\)	.	.	.
.	.	8r	.	8r	.	.	.
.	.	(4dd\	.	(4ff\	.	.	.
=173	=173	=173	=173	=173	=173	=173	=173
1r	.	8b'\)	.	8dd'\)	.	1gg\_	.
.	.	8r	.	8r	.	.	.
.	.	(4cc\	.	(4ee\	.	.	.
.	.	8e'\)	.	8cc'\)	.	.	.
.	.	8r	.	8r	.	.	.
.	.	(4f\	.	(8ee\L	.	.	.
.	.	.	.	8dd\J)	.	.	.
=174	=174	=174	=174	=174	=174	=174	=174
4r	.	8g'\)	.	4g'/	.	8gg'\]	.
.	.	8r	.	.	.	8r	.
(4e\	.	4r	.	4g'/	.	(4gg\	.
8c'\)	.	2r	.	4r	.	8ee'\)	.
8r	.	.	.	.	.	8r	.
(4d\	.	.	.	4g'/	.	(4ff\	.
=175	=175	=175	=175	=175	=175	=175	=175
8B'\)	.	1r	.	4r	.	8dd'\)	.
8r	.	.	.	.	.	8r	.
(4c\	.	.	.	4g'/	.	(4ee\	.
8E'\)	.	.	.	4r	.	8cc'\)	.
8r	.	.	.	.	.	8r	.
(4F\	.	.	.	(4a/	.	(8ee\L	.
.	.	.	.	.	.	8dd\J)	.
=176	=176	=176	=176	=176	=176	=176	=176
4G'\)	.	1r	.	4g'/)	.	4g'/	.
4r	.	.	.	4r	.	4g'/	.
2r	.	.	.	2r	.	4g'/	.
.	.	.	.	.	.	(8ee\L	.
.	.	.	.	.	.	8dd\J)	.
=177	=177	=177	=177	=177	=177	=177	=177
1r	.	4B'/	.	4d'/	.	4f'/	.
.	.	4B'/	.	4d'/	.	4f'/	.
.	.	4B'/	.	4d'/	.	4f'/	.
.	.	4r	.	4r	.	(4dd\	.
=178	=178	=178	=178	=178	=178	=178	=178
1r	.	4c'\	.	4c'/	.	8e'/)	.
.	.	.	.	.	.	8r	.
.	.	4r	.	4r	.	4r	.
.	.	2r	.	2r	.	4r	.
.	.	.	.	.	.	(4gg\	.
=179	=179	=179	=179	=179	=179	=179	=179
1r	.	4e'\	pp	4g'/	pp	8b-'\)	pp
.	.	.	.	.	.	8r	.
.	.	4r	.	4r	.	4r	.
.	.	2r	.	2r	.	4r	.
.	.	.	.	.	.	(4bb-\	.
=180	=180	=180	=180	=180	=180	=180	=180
1r	.	4g'\	.	4b-'\	.	8cc#'\)	.
.	.	.	.	.	.	8r	.
.	.	4r	.	4r	.	4r	.
.	.	2r	.	2r	.	4r	.
.	.	.	.	.	.	(4ddd\	f
=181	=181	=181	=181	=181	=181	=181	=181
2r	.	4f'\	f	4a/	f	8dd'\)	.
.	.	.	.	.	.	8r	.
.	.	4r	.	4r	.	(4aa\	.
4r	.	4r	.	4r	.	8a'/)	.
.	.	.	.	.	.	8r	.
(4f\	f	(4ff\	.	(4ff\	.	(4ff\	.
=182	=182	=182	=182	=182	=182	=182	=182
8F'\)	.	8f'\)	.	8f'/)	.	8f'/)	.
8r	.	8r	.	8r	.	8r	.
(4d\	.	(4dd\	.	(4dd\	.	(4dd\	.
8D'\)	.	8d'\)	.	8d'/)	.	8d'/)	.
8r	.	8r	.	8r	.	8r	.
(4Bn\	.	(4bn\	.	(4b\	.	(4bn\	.
=183	=183	=183	=183	=183	=183	=183	=183
8BB'/)	.	8B'/)	.	8B'/)	.	8B'/)	.
8r	.	8r	.	8r	.	8r	.
(4G\	.	(4g\	.	(4g/	.	(4g/	.
8GG'/)	.	8G'/)	.	8G'/)	.	8G'/)	.
8r	.	8r	.	8r	.	8r	.
(4G\	.	(4g\	.	(4g/	.	(4g/	.
=184	=184	=184	=184	=184	=184	=184	=184
8GG'/)	.	8G'/)	.	8G'/)	.	8G'/)	.
8r	.	8r	.	8r	.	8r	.
(4G\	.	(4g\	.	(4g/	.	(4g/	.
8GG'/)	.	8G'/)	.	8G'/)	.	8G'/)	.
8r	.	8r	.	8r	.	8r	.
(4G\	.	(4g\	.	(4g/	.	(4g/	.
=185	=185	=185	=185	=185	=185	=185	=185
[1AA-z/)	z	2.A-z/)	z	2.A-z/)	z	2.A-z/)	z
.	.	(4B/	.	(4B/	.	(4B/	.
=186	=186	=186	=186	=186	=186	=186	=186
1AA-/_	.	[1c\)	.	2.c/)	.	8c'/)	.
.	.	.	.	.	.	8r	.
.	.	.	.	.	.	(4e/	.
.	.	.	.	.	.	8f'/)	.
.	.	.	.	.	.	8r	.
.	.	.	.	4e/	.	(4g/	.
=187	=187	=187	=187	=187	=187	=187	=187
1AA-/_	.	1c\_	.	[1f/	.	8a-'/)	.
.	.	.	.	.	.	8r	.
.	.	.	.	.	.	(4b\	.
.	.	.	.	.	.	8cc'\)	.
.	.	.	.	.	.	8r	.
.	.	.	.	.	.	(4ee\	.
=188	=188	=188	=188	=188	=188	=188	=188
1AA-/_	.	1c\_	.	1f/_	.	8ff'\)	.
.	.	.	.	.	.	8r	.
.	.	.	.	.	.	(4gg\	.
.	.	.	.	.	.	8aa-'\)	.
.	.	.	.	.	.	8r	.
.	.	.	.	.	.	(4bb\	.
=189	=189	=189	=189	=189	=189	=189	=189
1AA-/]	.	1c\_	.	1f/]	.	8ccc'\)	.
.	.	.	.	.	.	8r	.
.	.	.	.	.	.	(4ddd\	.
.	.	.	.	.	.	8eee-'\)	.
.	.	.	.	.	.	8r	.
.	.	.	.	.	.	4eee-\	.
=190	=190	=190	=190	=190	=190	=190	=190
1AAn/	.	1c\]	.	1f#/	.	[2eee-\	.
.	.	.	.	.	.	8eee-\L]	.
.	.	.	.	.	.	8bb'\	.
.	.	.	.	.	.	8ccc'\	.
.	.	.	.	.	.	8ddd'\J	.
=191	=191	=191	=191	=191	=191	=191	=191
4AA'/	.	4f#'\	.	4cc'\	.	8eee-'\L	.
.	.	.	.	.	.	8bb'\	.
4AA'/	.	4f#'\	.	4cc'\	.	8ccc'\	.
.	.	.	.	.	.	8ddd'\J	.
4AA'/	.	4f#'\	.	4cc'\	.	8eee-'\L	.
.	.	.	.	.	.	8bb'\	.
4AA'/	.	4f#'\	.	4cc'\	.	8ccc'\	.
.	.	.	.	.	.	8ddd'\J	.
=192	=192	=192	=192	=192	=192	=192	=192
4AA'/	.	4cc'\	.	4ff#'\	.	8eee-'\L	.
.	.	.	.	.	.	8bb'\	.
4AA'/	.	4cc'\	.	4ff#'\	.	8ccc'\	.
.	.	.	.	.	.	8ddd'\J	.
4AA'/	.	4cc'\	.	4ff#'\	.	8eee-'\L	.
.	.	.	.	.	.	8bb'\	.
4AA'/	.	4cc'\	.	4ff#'\	.	8ccc'\	.
.	.	.	.	.	.	8ddd'\J	.
=193	=193	=193	=193	=193	=193	=193	=193
2GG/	ff	2.en\	ff	(8ccc\L	ff	(8eeen\L	ff
.	.	.	.	8ddd\)	.	8fff\)	.
.	.	.	.	8ccc'\	.	8eee'\	.
.	.	.	.	8bb'\J	.	8ddd'\J	.
2r	.	.	.	(8ccc\L	.	(8eee\L	.
.	.	.	.	8ddd\)	.	8fff\)	.
!	!	! (32aP/LLL	!	!	!	!	!
!	!	! 32gP/	!	!	!	!	!
!	!	! 32f#P/JJJ	!	!	!	!	!
.	.	&(4gp\)	.	8ccc'\	.	8eee'\	.
.	.	.	.	8bb'\J	.	8ddd'\J	.
=194	=194	=194	=194	=194	=194	=194	=194
2r	.	4cc\&)	.	(8ccc\L	.	(8eee\L	.
.	.	.	.	8ddd\)	.	8fff\)	.
.	.	4e'\	.	8ccc'\	.	8eee'\	.
.	.	.	.	8bb'\J	.	8ddd'\J	.
4r	.	4g'\	.	(8ccc\L	.	(8eee\L	.
.	.	.	.	8ddd\)	.	8fff\)	.
! (32dP/LLL	!	!	!	!	!	!	!
! 32cP/	!	!	!	!	!	!	!
! 32BP/JJJ	!	!	!	!	!	!	!
&(4cp\)	.	4r	.	8ccc'\	.	8eee'\	.
.	.	.	.	8bb'\J	.	8ddd'\J	.
=195	=195	=195	=195	=195	=195	=195	=195
4e\&)	.	1r	.	(8ccc\L	.	(8eee\L	.
.	.	.	.	8ddd\)	.	8fff\)	.
4G'\	.	.	.	8ccc'\	.	8eee'\	.
.	.	.	.	8bb'\J	.	8ddd'\J	.
4c'\	.	.	.	(8ccc\L	.	(8eee\L	.
.	.	.	.	8ddd\)	.	8fff\)	.
(4ES\	.	.	.	8ccc'\	.	8eee'\	.
.	.	.	.	8bb'\J	.	8ddd'\J	.
=196	=196	=196	=196	=196	=196	=196	=196
4G\)	.	1r	.	(8ccc\L	.	(8eee\L	.
.	.	.	.	8ddd\)	.	8fff\)	.
4C'/	.	.	.	8ccc'\	.	8eee'\	.
.	.	.	.	8bb'\J	.	8ddd'\J	.
4E'\	.	.	.	(8ccc\L	.	(8eee\L	.
.	.	.	.	8ddd\)	.	8fff\)	.
4FF#'/	.	.	.	8ccc'\	.	8eee'\	.
.	.	.	.	8bb'\J	.	8ddd'\J	.
=197	=197	=197	=197	=197	=197	=197	=197
8GG'/L	.	1r	.	(8ccc\L	.	(8eee\L	.
8G'/	.	.	.	8ddd\)	.	8fff\)	.
8GG'/	.	.	.	8ccc'\	.	8eee'\	.
8G'/J	.	.	.	8bb'\J	.	8ddd'\J	.
8GG'/L	.	.	.	4ccc\	.	4eee\	.
8G'/	.	.	.	.	.	.	.
8GG'/	.	.	.	(4cccS\	.	(4eeeS\	.
8G'/J	.	.	.	.	.	.	.
=198	=198	=198	=198	=198	=198	=198	=198
8GG/L	.	2r	.	4ddd\)	.	4fff\)	.
8G/	.	.	.	.	.	.	.
8GG/	.	.	.	4bb'\	.	4ddd'\	.
8G/J	.	.	.	.	.	.	.
8GG/L	.	4r	.	4ccc'\	.	4eee'\	.
8G/	.	.	.	.	.	.	.
8GG/	.	(4eeS\	.	(4ggS\	.	(4cccS\	.
8G/J	.	.	.	.	.	.	.
=199	=199	=199	=199	=199	=199	=199	=199
8GG/L	.	4ff\)	.	4aa\)	.	4ddd\)	.
8G/	.	.	.	.	.	.	.
8GG/	.	4dd'\	.	4ff'\	.	4bb'\	.
8G/J	.	.	.	.	.	.	.
8GG/L	.	4ee'\	.	4gg'\	.	4ccc'\	.
8G/	.	.	.	.	.	.	.
8GG/	.	(4bS\	.	(4ddS\	.	(4ggS\	.
8G/J	.	.	.	.	.	.	.
=200	=200	=200	=200	=200	=200	=200	=200
8GG/L	.	4cc\)	.	4ee\)	.	4aa\)	.
8G/	.	.	.	.	.	.	.
8GG/	.	4a'\	.	4cc'\	.	4ff#'\	.
8G/J	.	.	.	.	.	.	.
8GG/L	.	4b'\	.	4dd'\	.	4gg'\	.
8G/	.	.	.	.	.	.	.
8GG/	.	(4gS\	.	(4bS\	.	(4eeS\	.
8G/J	.	.	.	.	.	.	.
=201	=201	=201	=201	=201	=201	=201	=201
8GG/L	.	4a\)	.	4cc\)	.	4ffn\)	.
8G/	.	.	.	.	.	.	.
8GG/	.	4f#'\	.	4a'/	.	4dd#'\	.
8G/J	.	.	.	.	.	.	.
8GG/L	.	4g'\	.	4b'\	.	4ee'\	.
8G/	.	.	.	.	.	.	.
8GG/	.	(4eS\	.	(4gS/	.	(4cc#S\	.
8G/J	.	.	.	.	.	.	.
=202	=202	=202	=202	=202	=202	=202	=202
8GG/L	.	4fn\)	.	4a/)	.	4ddn\)	.
8G/	.	.	.	.	.	.	.
8GG/	.	4d'\	.	4f'/	.	4b'\	.
8G/J	.	.	.	.	.	.	.
8GG/L	.	4e'\	.	4g'/	.	4ccn'\	.
8G/	.	.	.	.	.	.	.
8GG/	.	4e'\	.	4b-'\	.	4cc#'\	.
8G/J	.	.	.	.	.	.	.
=203	=203	=203	=203	=203	=203	=203	=203
4F\	.	4f\	.	4a/	.	(8dd\L	<
.	.	.	.	.	.	8cc#\	.
4r	.	4r	.	4r	.	8ee\	.
.	.	.	.	.	.	8dd\J	.
2r	.	2r	.	2r	.	8ff\L	.
.	.	.	.	.	.	8ee\	.
.	.	.	.	.	.	8gg\	.
.	.	.	.	.	.	8ff\J)	]
=204	=204	=204	=204	=204	=204	=204	=204
1r	.	1r	.	1r	.	(8aa\L	>
.	.	.	.	.	.	8gg\	.
.	.	.	.	.	.	8bb-\	.
.	.	.	.	.	.	8aa\J	.
.	.	.	.	.	.	8gg\L	.
.	.	.	.	.	.	8ff\	.
.	.	.	.	.	.	8ee\	.
.	.	.	.	.	.	8dd\J)	]
=205	=205	=205	=205	=205	=205	=205	=205
(2G\	.	(2c\	.	(2e/	.	2cc\	.
2GG/)	.	2B/)	.	4g/	.	&(4.ddz\)	z
.	.	.	.	4f/)	.	.	.
.	.	.	.	.	.	8cc\&)	.
=206	=206	=206	=206	=206	=206	=206	=206
4C/	.	4c\	.	4e/	.	4cc\	.
*clefC4	*	*	*	*	*	*	*
(4a'\	mf	(4cc'\	mf	(4dd'\	mf	(4ff#'\	mf
4a'\)	.	4cc'\)	.	4dd'\)	.	4ff#'\)	.
(4a\	.	[4cc\	.	(4dd\	.	(4ff#S\	.
=207	=207	=207	=207	=207	=207	=207	=207
4g\)	.	4cc\]	.	4ee\)	.	4gg\)	.
(4f'\	.	(4cc'\	.	(4ff'\	.	(4aa'\	.
4f'\	.	4cc'\	.	4ff'\	.	4aa'\	.
4f'\)	.	4cc'\)	.	4ff'\)	.	4aa'\)	.
*clefF4	*	*	*	*	*	*	*
=208	=208	=208	=208	=208	=208	=208	=208
1Gz\	z	2g\	.	2e/	.	2cc\	.
.	.	2B/	.	&(8f/L)	.	&(8dd\L)	.
.	.	.	.	8e/	.	8cc\	.
.	.	.	.	8f/	.	8dd\	.
.	.	.	.	8g/J&)	.	8ee\J&)	.
=209	=209	=209	=209	=209	=209	=209	=209
4A\	.	4c\	.	4e/	.	4cc\	.
4r	.	4r	.	4r	.	4r	.
2r	.	2r	.	2r	.	2r	.
=210	=210	=210	=210	=210	=210	=210	=210
4r	.	4r	.	4r	.	4r	.
(4A'\	p	(4c'\	.	(4e-'/	p	(4f#'/	p
4A'\)	.	4c'\)	.	4e-'/)	.	4f#'/)	.
(4A\	.	[4c\	.	(4e-/	.	(4f#/	.
=211	=211	=211	=211	=211	=211	=211	=211
4G\)	.	4c\]	.	4en/)	.	4g/)	.
(4F'\	.	(4c'\	.	(4f'/	.	(4a'/	.
4F'\	.	4c'\	.	4f'/	.	4a'/	.
4F'\)	.	4c'\)	.	4f'/)	.	4a'/)	.
=212	=212	=212	=212	=212	=212	=212	=212
1GG/	.	(2E/	.	(2c/	.	2c/	.
.	.	2F/)	.	2B/)	.	2d/)	.
=213	=213	=213	=213	=213	=213	=213	=213
4C/	.	4E/	.	4c/	.	(8c/L	.
.	.	.	.	.	.	8G/)	.
4r	.	4r	.	4r	.	8g'/	.
.	.	.	.	.	.	8e'/J	.
2r	.	2r	.	2r	.	(8c/L	.
.	.	.	.	.	.	8G/)	.
.	.	.	.	.	.	8cc'/	.
.	.	.	.	.	.	8g'/J	.
=214	=214	=214	=214	=214	=214	=214	=214
!	!	!	!	!	!	! cresc.	!
4C/	.	4G/	.	4e/ 4G/	.	(8e/L	.
.	.	.	.	.	.	8c/)	.
4r	.	4r	.	4r	.	8ee'/	.
.	.	.	.	.	.	8cc'/J	.
2r	.	2r	.	2r	.	(8g/L	.
.	.	.	.	.	.	8e/)	.
.	.	.	.	.	.	8gg'/	.
.	.	.	.	.	.	8ee'/J	.
=215	=215	=215	=215	=215	=215	=215	=215
! cresc.	!	! cresc.	!	! cresc.	!	!	!
4C/	.	4E/	.	4e/	.	(8cc\L	.
.	.	.	.	.	.	8g\)	.
4r	.	8C'/L	.	8e'/L	.	8ccc'\	.
.	.	8E'/J	.	8g'/J	.	8ccc'\J	.
2r	.	(8G/L	.	(8cc/L	.	8ccc\L	.
.	.	8c/)	.	8ee/)	.	8ccc\	.
.	.	8C'/	.	8e'/	.	8ccc\	.
.	.	8E'/J	.	8g'/J	.	8ccc\J	.
=216	=216	=216	=216	=216	=216	=216	=216
4C/	.	(8G/L	.	(8cc\L	.	(8ccc\L	.
.	.	8c/)	.	8ee\)	.	8gg\)	.
4r	.	8E'/	.	8g'\	.	8eee'\	.
.	.	8G'/J	.	8cc'\J	.	8eee'\J	.
2r	.	(8c/L	.	(8ee\L	.	8eee\L	.
.	.	8e/)	.	8gg\)	.	8eee\	.
.	.	8E'/	.	8g'\	.	8eee\	.
.	.	8G'/J	.	8cc'\J	.	8eee\J	.
=217	=217	=217	=217	=217	=217	=217	=217
4C/	.	(8c/L	.	(8ee\L	.	(8eee\L	.
.	.	8e/)	.	8gg\)	.	8ccc\)	.
4r	.	8G'/	.	8cc'\	.	8ggg'\	.
.	.	8c'/J	.	8ee'\J	.	8ggg'\J	.
2r	.	(8e\L	.	(8gg\L	.	8ggg\L	.
.	.	8g\)	.	8ccc\)	.	8ggg\	.
.	.	8G'\	.	8cc'\	.	8ggg\	.
.	.	8c'\J	.	8ee'\J	.	8ggg\J	.
=218	=218	=218	=218	=218	=218	=218	=218
4r	.	(8e\L	f	(8gg\L	f	(8ggg\L	f
.	.	8g\)	.	8ccc\)	.	8eee\)	.
8CC'/L	f	8e'\	.	8ccc'\	.	8cccc'\	.
8EE'/J	.	8g'\J	.	8gg'\J	.	8cccc'\J	.
(8GG/L	.	(8cc\L	.	(8ee\L	.	8cccc\L	.
8C/)	.	8ee\)	.	8cc\)	.	8cccc\	.
8CC'/	.	8e'\	.	8ccc'\	.	8cccc\	.
8EE'/J	.	8g'\J	.	8gg'\J	.	8cccc\J	.
=219	=219	=219	=219	=219	=219	=219	=219
(8GG/L	.	(8cc\L	.	(8ee\L	.	4cccc\	.
8C/J)	.	8ee\J)	.	8cc\J)	.	.	.
4CC'/	.	4r	.	4r	.	(8e/L	.
.	.	.	.	.	.	8g/J)	.
4DD'/	.	2r	.	2r	.	(8fn/L	.
.	.	.	.	.	.	8a/)	.
4EE'/	.	.	.	.	.	(8g/	.
.	.	.	.	.	.	8b-/J)	.
=220	=220	=220	=220	=220	=220	=220	=220
2FF/	.	1r	.	1r	.	4a'/	.
.	.	.	.	.	.	(4aS/	p
2r	.	.	.	.	.	4bn\	.
.	.	.	.	.	.	4cc\)	.
=221	=221	=221	=221	=221	=221	=221	=221
1GG/	p	(2E/	p	(2c/	p	2c/	.
.	.	4G/	.	2B/)	.	&(4.d/)	.
.	.	4F/)	.	.	.	.	.
.	.	.	.	.	.	8c/&)	.
=222	=222	=222	=222	=222	=222	=222	=222
4C/	.	4E/	.	8c/	.	8c/	.
.	.	.	.	8r	.	8r	.
4r	.	4r	.	(4e/	mf	(4cc\	mf
2r	.	2r	.	8d'/)	.	8b'\)	.
.	.	.	.	8r	.	8r	.
.	.	.	.	(4f/	.	(4dd\	.
=223	=223	=223	=223	=223	=223	=223	=223
1r	.	4r	.	8e'/)	.	8cc'\)	.
.	.	.	.	8r	.	8r	.
.	.	(4c\	mf	(4cc\	.	(4ee\	.
.	.	8C'/)	.	8b'\)	.	8dd'\)	.
.	.	8r	.	8r	.	8r	.
.	.	(4c\	.	(4dd\	.	(4ff\	.
=224	=224	=224	=224	=224	=224	=224	=224
4r	.	8C'/)	.	8cc'\)	.	8ee'\)	.
.	.	8r	.	8r	.	8r	.
(4C/	mf	4r	.	(4ee\	.	(4gg\	.
8CC'/)	.	2r	.	8dd'\)	.	8ff'\)	.
8r	.	.	.	8r	.	8r	.
(4C/	.	.	.	(4ff\	.	(4aa\	.
=225	=225	=225	=225	=225	=225	=225	=225
8CC'/)	.	2r	.	8ee'\)	.	8gg'\)	.
8r	.	.	.	8r	.	8r	.
4r	.	.	.	4r	.	4r	.
4r	.	4r	.	4r	.	4r	.
(4E\	.	(4g\	.	(4cc\	.	(4ccc\	.
=226	=226	=226	=226	=226	=226	=226	=226
8F'\)	.	8c'\)	.	8aa'\)	.	8aa'\)	.
8r	.	8r	.	8r	.	8r	.
4r	.	4r	.	4r	.	4r	.
4r	.	4r	.	4r	.	4r	.
(4G\	.	(4b\	.	(4dd\	.	(4ff\	.
=227	=227	=227	=227	=227	=227	=227	=227
8A'\)	.	8cc'\)	.	8cc'\)	.	8ee'\)	.
8r	.	8r	.	8r	.	8r	.
4r	.	4r	.	4r	.	4r	.
4r	.	4r	.	4r	.	4r	.
(4F\	.	(4c\	.	(4f/	.	(4a/	.
=228	=228	=228	=228	=228	=228	=228	=228
8G'\)	.	8c'\)	.	8e'/)	.	8g'/)	.
8r	.	8r	.	8r	.	8r	.
4r	.	4r	.	4r	.	4r	.
4r	.	4r	.	4r	.	4r	.
4GG'/	.	4G'/	.	4B'/	.	(8d/ 8G/L	.
.	.	.	.	.	.	8f/J	.
=229	=229	=229	=229	=229	=229	=229	=229
*	*	*	*	*	*	*^	*
4CC'/	.	4G'/	.	4c'/	.	8e/L	1G\	.
.	.	.	.	.	.	8f/	.	.
4GG'/	.	4G'/	.	4B'/	.	8d/	.	.
.	.	.	.	.	.	8f/J	.	.
4CC'/	.	4G'/	.	4c'/	.	8e/L	.	.
.	.	.	.	.	.	8f/	.	.
4GG'/	.	4G'/	.	4B'/	.	8d/	.	.
.	.	.	.	.	.	8f/J)	.	.
=230	=230	=230	=230	=230	=230	=230	=230	=230
*	*	*	*	*	*	*v	*v	*
4CC'/	.	4G'/	.	4c'/	.	4e/ 4G'/	.
4r	.	4r	.	4r	.	4cc'\	.
4r	.	4r	.	4r	.	4ee'\	.
4GG'/	.	4G'/	.	4B'/	.	(8d/ 8G/L	.
.	.	.	.	.	.	8f/J	.
=231	=231	=231	=231	=231	=231	=231	=231
*	*	*	*	*	*	*^	*
4CC'/	.	4G'/	.	4c'/	.	8e/L	1G\	.
.	.	.	.	.	.	8f/	.	.
4GG'/	.	4G'/	.	4B'/	.	8d/	.	.
.	.	.	.	.	.	8f/J	.	.
4CC'/	.	4G'/	.	4c'/	.	8e/L	.	.
.	.	.	.	.	.	8f/	.	.
4GG'/	.	4G'/	.	4B'/	.	8d/	.	.
.	.	.	.	.	.	8f/J)	.	.
=232	=232	=232	=232	=232	=232	=232	=232	=232
*	*	*	*	*	*	*v	*v	*
2CC/	.	2G/	.	2c/	.	2e/ 2G/	.
2C/ 2CC/	f	2e/ 2G/	f	2cc/ 2e/	f	2ee\ 2cc\	f
=233	=233	=233	=233	=233	=233	=233	=233
2C/ 2CC/	.	2e/ 2G/	.	2cc/ 2e/	.	2e/ 2c/	.
2r	.	2r	.	2r	.	2r	.
==:|!	==:|!	==:|!	==:|!	==:|!	==:|!	==:|!	==:|!
*-	*-	*-	*-	*-	*-	*-	*-
!!!RWG: Appoggiaturas of spine 'Violino I' need manual editing in measures: 0, 2, 7, 8, 13, 14, 22, 30, 88, 89, 95, 126, 127, 132, 133, 138
!!!RWG: Appoggiaturas of spine 'Violino II' need manual editing in measures: 96
!!!RWG: Appoggiaturas of spine 'Viola' need manual editing in measures: 193
!!!RWG: Appoggiaturas of spine 'Violoncello' need manual editing in measures: 194
!!!RWG: Key is interpreted using the Humdrum key tool.
!!!GTL: 6 Quators ("Tost I + II")
!!!AFT: stage2
!!!END: 1994/07/25
!!!KEY: 4000451156
!!!EMD: Converted from MuseData to Humdrum Dec 16, 2000, by Andreas Kornstaedt using muse2kern.
!!!EMD: Manual editing by Craig Sapp, Nov 2001
